!!!!SEGMENT: pl-wn--mus-iii-65-947-cim--022_sowinski-wojciech--swiety-wojciech-meczennik-no-20-mysliwcy-recitativo-i-chor.krn
!!!cenid: 18xx:3615
!!!COM: Sowiński, Wojciech
!!!COM-rismid: pe30008543
!!!CDT: ~1803-1880/03/05
!!!CNT:
!!!GTL: Święty Wojciech męczennik
!!!OTL: No. 20. Myśliwcy. Recitativo i chór
!!!PDT:
!!!AGN:
!!!SMS-siglum: PL-Wn
!!!SMS-shelfmark: Mus.III.65.947 Cim.
!!!SMS-shelfwork: 022 G
!!!SMS-variant:
!!!SMS-altvar:
!!!NIFC-rismid:
!!!OMD: Moderato.
!!!system-decoration: [(s1)][(s2,s3,s4,s5)]{(s6,s7)}
**kern	**fing	**kern	**fing	**dynam	**kern	**text	**dynam	**kern	**text	**dynam	**kern	**text	**dynam	**kern	**text	**dynam	**kern	**text	**dynam
*part6	*part6	*part6	*part6	*part6	*part5	*part5	*part5	*part4	*part4	*part4	*part3	*part3	*part3	*part2	*part2	*part2	*part1	*part1	*part1
*staff7	*staff7	*staff6	*staff6	*	*staff5	*staff5	*	*staff4	*staff4	*	*staff3	*staff3	*	*staff2	*staff2	*	*staff1	*staff1	*
*Iempty	*	*Ipiano	*	*	*Iempty	*	*	*Iempty	*	*	*Iempty	*	*	*Iempty	*	*	*Iempty	*	*
*	*	*I"PIANO	*	*	*I"BAS.	*	*	*I"BARYTON.	*	*	*I"2. TENOR	*	*	*I"1. TENOR	*	*	*I"AZAEL.	*	*
*	*	*I'pf	*	*	*I'B	*	*	*I'Bariton	*	*	*I'T 2	*	*	*I'T 1	*	*	*I'T	*	*
*clefG2	*	*clefG2	*	*	*clefF4	*	*	*clefF4	*	*	*clefGv2	*	*	*clefGv2	*	*	*clefGv2	*	*
*k[b-e-]	*	*k[b-e-]	*	*	*k[b-e-]	*	*	*k[b-e-]	*	*	*k[b-e-]	*	*	*k[b-e-]	*	*	*k[b-e-]	*	*
*e:	*	*e:	*	*	*e:	*	*	*e:	*	*	*e:	*	*	*e:	*	*	*e:	*	*
*M4/4	*	*M4/4	*	*	*M4/4	*	*	*M4/4	*	*	*M4/4	*	*	*M4/4	*	*	*M4/4	*	*
*met(c)	*	*met(c)	*	*	*met(c)	*	*	*met(c)	*	*	*met(c)	*	*	*met(c)	*	*	*met(c)	*	*
=1	=1	=1	=1	=1	=1	=1	=1	=1	=1	=1	=1	=1	=1	=1	=1	=1	=1	=1	=1
!LO:TX:t=P:problem:w źródle triola bez klamry oznaczona 3:global	!	!	!	!	!	!	!	!	!	!	!	!	!	!	!	!	!	!	!
!	!	!LO:TX:t=P:problem:w źródle triola bez klamry oznaczona 3:global	!	!	!	!	!	!	!	!	!	!	!	!	!	!	!	!	!
!LO:TX:a:i:t=Oboe.	!	!LO:TX:b:i:t=Fl.	!	!	!	!	!	!	!	!	!	!	!	!	!	!	!	!	!
!	!	!LO:TUP:a	!	!	!	!	!	!	!	!	!	!	!	!	!	!	!	!	!
!	!	!	!	!LO:DY:b:rj	!	!	!	!	!	!	!	!	!	!	!	!	!	!	!
(>2dd 2b-\	.	12r	.	p	1ryy	.	.	1ryy	.	.	1ryy	.	.	1ryy	.	.	1ryy	.	.
.	.	(12fff\L	.	.	.	.	.	.	.	.	.	.	.	.	.	.	.	.	.
.	.	12ff\J)	.	.	.	.	.	.	.	.	.	.	.	.	.	.	.	.	.
!	!	!LO:TUP:a	!	!	!	!	!	!	!	!	!	!	!	!	!	!	!	!	!
.	.	12ff\L	.	.	.	.	.	.	.	.	.	.	.	.	.	.	.	.	.
.	.	12ff\	.	.	.	.	.	.	.	.	.	.	.	.	.	.	.	.	.
.	.	12ff\J	.	.	.	.	.	.	.	.	.	.	.	.	.	.	.	.	.
!	!	!LO:TUP:a	!	!	!	!	!	!	!	!	!	!	!	!	!	!	!	!	!
4ee- 4cc\	.	12r	.	.	.	.	.	.	.	.	.	.	.	.	.	.	.	.	.
.	.	(12fff\L	.	.	.	.	.	.	.	.	.	.	.	.	.	.	.	.	.
.	.	12ff\J)	.	.	.	.	.	.	.	.	.	.	.	.	.	.	.	.	.
!	!	!LO:TUP:a	!	!	!	!	!	!	!	!	!	!	!	!	!	!	!	!	!
4dd 4b-\)	.	12r	.	.	.	.	.	.	.	.	.	.	.	.	.	.	.	.	.
.	.	(12fff\L	.	.	.	.	.	.	.	.	.	.	.	.	.	.	.	.	.
.	.	12ff\J)	.	.	.	.	.	.	.	.	.	.	.	.	.	.	.	.	.
=2	=2	=2	=2	=2	=2	=2	=2	=2	=2	=2	=2	=2	=2	=2	=2	=2	=2	=2	=2
!	!	!LO:TUP:a	!	!	!	!	!	!	!	!	!	!	!	!	!	!	!	!	!
[1cc [1a	.	12r	.	.	1ryy	.	.	1ryy	.	.	1ryy	.	.	1ryy	.	.	1ryy	.	.
.	.	(12fff\L	.	.	.	.	.	.	.	.	.	.	.	.	.	.	.	.	.
.	.	12ff\J)	.	.	.	.	.	.	.	.	.	.	.	.	.	.	.	.	.
!	!	!LO:TUP:a	!	!	!	!	!	!	!	!	!	!	!	!	!	!	!	!	!
.	.	12ff\L	.	.	.	.	.	.	.	.	.	.	.	.	.	.	.	.	.
.	.	12ff\	.	.	.	.	.	.	.	.	.	.	.	.	.	.	.	.	.
.	.	12ff\J	.	.	.	.	.	.	.	.	.	.	.	.	.	.	.	.	.
!	!	!LO:TX:a:t=P:problem:w źródle przednutki nie posiadają caud	!	!	!	!	!	!	!	!	!	!	!	!	!	!	!	!	!
.	.	(<16qqgg/LL	.	.	.	.	.	.	.	.	.	.	.	.	.	.	.	.	.
.	.	16qqaa/JJ	.	.	.	.	.	.	.	.	.	.	.	.	.	.	.	.	.
!	!	!LO:TUP:a	!	!	!	!	!	!	!	!	!	!	!	!	!	!	!	!	!
.	.	12gg\L)	.	.	.	.	.	.	.	.	.	.	.	.	.	.	.	.	.
.	.	12ff\	.	.	.	.	.	.	.	.	.	.	.	.	.	.	.	.	.
.	.	12ff\J	.	.	.	.	.	.	.	.	.	.	.	.	.	.	.	.	.
!	!	!LO:TUP:a	!	!	!	!	!	!	!	!	!	!	!	!	!	!	!	!	!
.	.	12ff\L	.	.	.	.	.	.	.	.	.	.	.	.	.	.	.	.	.
.	.	12ff\	.	.	.	.	.	.	.	.	.	.	.	.	.	.	.	.	.
.	.	12ff\J	.	.	.	.	.	.	.	.	.	.	.	.	.	.	.	.	.
=3	=3	=3	=3	=3	=3	=3	=3	=3	=3	=3	=3	=3	=3	=3	=3	=3	=3	=3	=3
*Xtuplet	*	*	*	*	*	*	*	*	*	*	*	*	*	*	*	*	*	*	*
2.cc] 2.a\]	.	2.ff;\	.	.	1ryy	.	.	1ryy	.	.	1ryy	.	.	1ryy	.	.	1ryy	.	.
*clefF4	*	*	*	*	*	*	*	*	*	*	*	*	*	*	*	*	*	*	*
12r	.	4r	.	.	.	.	.	.	.	.	.	.	.	.	.	.	.	.	.
!LO:TX:a:Bi:t=Cor	!	!	!	!	!	!	!	!	!	!	!	!	!	!	!	!	!	!	!
12A\L	.	.	.	.	.	.	.	.	.	.	.	.	.	.	.	.	.	.	.
12c\J	.	.	.	.	.	.	.	.	.	.	.	.	.	.	.	.	.	.	.
*tuplet	*	*	*	*	*	*	*	*	*	*	*	*	*	*	*	*	*	*	*
=4	=4	=4	=4	=4	=4	=4	=4	=4	=4	=4	=4	=4	=4	=4	=4	=4	=4	=4	=4
!	!	!	!	!LO:HP:b=2	!	!	!	!	!	!	!	!	!	!	!	!	!	!	!
2f;>\	.	1r	.	<	1ryy	.	.	1ryy	.	.	1ryy	.	.	1ryy	.	.	1ryy	.	.
!	!	!	!	!LO:HP:b=2	!	!	!	!	!	!	!	!	!	!	!	!	!	!	!
2r	.	.	.	[ >]	.	.	.	.	.	.	.	.	.	.	.	.	.	.	.
*clefG2	*	*	*	*	*	*	*	*	*	*	*	*	*	*	*	*	*	*	*
!!LO:LB:g=original
=5	=5	=5	=5	=5	=5	=5	=5	=5	=5	=5	=5	=5	=5	=5	=5	=5	=5	=5	=5
!	!	!LO:TUP:a	!	!	!	!	!	!	!	!	!	!	!	!	!	!	!	!	!
(>2ee- 2cc\	.	12r	.	.	1ryy	.	.	1ryy	.	.	1ryy	.	.	1ryy	.	.	1ryy	.	.
.	.	(12ggg\L	.	>	.	.	.	.	.	.	.	.	.	.	.	.	.	.	.
.	.	12gg\J)	.	.	.	.	.	.	.	.	.	.	.	.	.	.	.	.	.
!	!	!LO:TUP:a	!	!	!	!	!	!	!	!	!	!	!	!	!	!	!	!	!
.	.	12gg\L	.	.	.	.	.	.	.	.	.	.	.	.	.	.	.	.	.
.	.	12gg\	.	.	.	.	.	.	.	.	.	.	.	.	.	.	.	.	.
.	.	12gg\J	.	]	.	.	.	.	.	.	.	.	.	.	.	.	.	.	.
!	!	!LO:TUP:a	!	!	!	!	!	!	!	!	!	!	!	!	!	!	!	!	!
4ff 4dd\	.	12r	.	.	.	.	.	.	.	.	.	.	.	.	.	.	.	.	.
.	.	(12ggg\L	.	.	.	.	.	.	.	.	.	.	.	.	.	.	.	.	.
.	.	12gg\J)	.	.	.	.	.	.	.	.	.	.	.	.	.	.	.	.	.
!	!	!LO:TUP:a	!	!	!	!	!	!	!	!	!	!	!	!	!	!	!	!	!
4ee- 4cc\)	.	12r	.	.	.	.	.	.	.	.	.	.	.	.	.	.	.	.	.
.	.	(12ggg\L	.	.	.	.	.	.	.	.	.	.	.	.	.	.	.	.	.
.	.	12gg\J)	.	.	.	.	.	.	.	.	.	.	.	.	.	.	.	.	.
=6	=6	=6	=6	=6	=6	=6	=6	=6	=6	=6	=6	=6	=6	=6	=6	=6	=6	=6	=6
!	!	!LO:TUP:a	!	!	!	!	!	!	!	!	!	!	!	!	!	!	!	!	!
[1dd [1bn	.	12r	.	.	1ryy	.	.	1ryy	.	.	1ryy	.	.	1ryy	.	.	1ryy	.	.
.	.	(12ggg\L	.	.	.	.	.	.	.	.	.	.	.	.	.	.	.	.	.
.	.	12gg\J)	.	.	.	.	.	.	.	.	.	.	.	.	.	.	.	.	.
!	!	!LO:TUP:a	!	!	!	!	!	!	!	!	!	!	!	!	!	!	!	!	!
.	.	12gg\L	.	.	.	.	.	.	.	.	.	.	.	.	.	.	.	.	.
.	.	12gg\	.	.	.	.	.	.	.	.	.	.	.	.	.	.	.	.	.
.	.	12gg\J	.	>	.	.	.	.	.	.	.	.	.	.	.	.	.	.	.
.	.	(<16qqaa/LL	.	.	.	.	.	.	.	.	.	.	.	.	.	.	.	.	.
.	.	16qqbbn/JJ	.	.	.	.	.	.	.	.	.	.	.	.	.	.	.	.	.
!	!	!LO:TUP:a	!	!	!	!	!	!	!	!	!	!	!	!	!	!	!	!	!
.	.	12aa\L)	.	.	.	.	.	.	.	.	.	.	.	.	.	.	.	.	.
.	.	12gg\	.	.	.	.	.	.	.	.	.	.	.	.	.	.	.	.	.
.	.	12gg\J	.	.	.	.	.	.	.	.	.	.	.	.	.	.	.	.	.
!	!	!LO:TUP:a	!	!	!	!	!	!	!	!	!	!	!	!	!	!	!	!	!
.	.	12gg\L	.	.	.	.	.	.	.	.	.	.	.	.	.	.	.	.	.
.	.	12gg\	.	.	.	.	.	.	.	.	.	.	.	.	.	.	.	.	.
.	.	12gg\J	.	]	.	.	.	.	.	.	.	.	.	.	.	.	.	.	.
=7	=7	=7	=7	=7	=7	=7	=7	=7	=7	=7	=7	=7	=7	=7	=7	=7	=7	=7	=7
2.dd] 2.bn\]	.	2.gg;\	.	.	1ryy	.	.	1ryy	.	.	1ryy	.	.	1ryy	.	.	1ryy	.	.
*clefF4	*	*	*	*	*	*	*	*	*	*	*	*	*	*	*	*	*	*	*
!	!	!LO:TUP:a	!	!	!	!	!	!	!	!	!	!	!	!	!	!	!	!	!
4ryy	.	12r<	.	.	.	.	.	.	.	.	.	.	.	.	.	.	.	.	.
.	.	12c<\L	.	.	.	.	.	.	.	.	.	.	.	.	.	.	.	.	.
.	.	12e-<\J	.	.	.	.	.	.	.	.	.	.	.	.	.	.	.	.	.
=8	=8	=8	=8	=8	=8	=8	=8	=8	=8	=8	=8	=8	=8	=8	=8	=8	=8	=8	=8
2ryy	.	2g<;>\	.	.	1ryy	.	.	1ryy	.	.	1ryy	.	.	1ryy	.	.	1ryy	.	.
4ryy	.	4r<	.	.	.	.	.	.	.	.	.	.	.	.	.	.	.	.	.
8ryy	.	8r<	.	.	.	.	.	.	.	.	.	.	.	.	.	.	.	.	.
!LO:TX:a:Bi:t=Bassi. accelerando.	!	!	!	!	!	!	!	!	!	!	!	!	!	!	!	!	!	!	!
16CC\LL	.	16C</L	.	.	.	.	.	.	.	.	.	.	.	.	.	.	.	.	.
16EE-\JJ	.	16E-</J	.	.	.	.	.	.	.	.	.	.	.	.	.	.	.	.	.
=9	=9	=9	=9	=9	=9	=9	=9	=9	=9	=9	=9	=9	=9	=9	=9	=9	=9	=9	=9
4GG\	.	4G</	.	.	1ryy	.	.	1ryy	.	.	1ryy	.	.	1ryy	.	.	1ryy	.	.
4GG\	.	4G</	.	.	.	.	.	.	.	.	.	.	.	.	.	.	.	.	.
4GG\	.	4G</	.	.	.	.	.	.	.	.	.	.	.	.	.	.	.	.	.
8FF\L	.	8F</L	.	.	.	.	.	.	.	.	.	.	.	.	.	.	.	.	.
8EE-\J	.	8E-</J	.	.	.	.	.	.	.	.	.	.	.	.	.	.	.	.	.
!!LO:LB:g=original
=10	=10	=10	=10	=10	=10	=10	=10	=10	=10	=10	=10	=10	=10	=10	=10	=10	=10	=10	=10
*^	*	*	*	*	*	*	*	*	*	*	*	*	*	*	*	*	*	*	*
(>4D/	4DD\	.	1r	.	.	1ryy	.	.	1ryy	.	.	1ryy	.	.	1ryy	.	.	1r	.	.
4F/	4FF\	.	.	.	.	.	.	.	.	.	.	.	.	.	.	.	.	.	.	.
4F/	4FF\	.	.	.	.	.	.	.	.	.	.	.	.	.	.	.	.	.	.	.
8E-/L	8EE-\L	.	.	.	.	.	.	.	.	.	.	.	.	.	.	.	.	.	.	.
8D/J)	8DD\J	.	.	.	.	.	.	.	.	.	.	.	.	.	.	.	.	.	.	.
=11	=11	=11	=11	=11	=11	=11	=11	=11	=11	=11	=11	=11	=11	=11	=11	=11	=11	=11	=11	=11
!	!	!	!	!	!	!	!	!	!	!	!	!	!	!	!	!	!	!LO:TX:a:Bi:t=AZAEL.	!	!
(>16C/LL	16CC\LL	.	1r	.	pp	1ryy	.	.	1ryy	.	.	1ryy	.	.	1ryy	.	.	1r	.	.
16BBn/	16BBBn\	.	.	.	.	.	.	.	.	.	.	.	.	.	.	.	.	.	.	.
16C/	16CC\	.	.	.	.	.	.	.	.	.	.	.	.	.	.	.	.	.	.	.
16BB/JJ	16BBB\JJ	.	.	.	.	.	.	.	.	.	.	.	.	.	.	.	.	.	.	.
16C/LL	16CC\LL	.	.	.	.	.	.	.	.	.	.	.	.	.	.	.	.	.	.	.
16BB/	16BBB\	.	.	.	.	.	.	.	.	.	.	.	.	.	.	.	.	.	.	.
16C/	16CC\	.	.	.	.	.	.	.	.	.	.	.	.	.	.	.	.	.	.	.
16BB/JJ	16BBB\JJ	.	.	.	.	.	.	.	.	.	.	.	.	.	.	.	.	.	.	.
16C/LL	16CC\LL	.	.	.	.	.	.	.	.	.	.	.	.	.	.	.	.	.	.	.
16BB/	16BBB\	.	.	.	.	.	.	.	.	.	.	.	.	.	.	.	.	.	.	.
16C/	16CC\	.	.	.	.	.	.	.	.	.	.	.	.	.	.	.	.	.	.	.
16BB/JJ	16BBB\JJ	.	.	.	.	.	.	.	.	.	.	.	.	.	.	.	.	.	.	.
16C/LL	16CC\LL	.	.	.	.	.	.	.	.	.	.	.	.	.	.	.	.	.	.	.
16GG/	16GGG\	.	.	.	.	.	.	.	.	.	.	.	.	.	.	.	.	.	.	.
16AA/	16AAA\	.	.	.	.	.	.	.	.	.	.	.	.	.	.	.	.	.	.	.
16BB/JJ)	16BBB\JJ	.	.	.	.	.	.	.	.	.	.	.	.	.	.	.	.	.	.	.
=12	=12	=12	=12	=12	=12	=12	=12	=12	=12	=12	=12	=12	=12	=12	=12	=12	=12	=12	=12	=12
4C/	4CC\	.	4ryy	.	.	1ryy	.	.	1ryy	.	.	1ryy	.	.	1ryy	.	.	4r	.	.
4r	4ryy	.	4r	.	.	.	.	.	.	.	.	.	.	.	.	.	.	8r	.	.
.	.	.	.	.	.	.	.	.	.	.	.	.	.	.	.	.	.	8c\	Jaś-	.
2r	2ryy	.	2r	.	.	.	.	.	.	.	.	.	.	.	.	.	.	8c\	-nie-	.
.	.	.	.	.	.	.	.	.	.	.	.	.	.	.	.	.	.	8c\	-ją	.
.	.	.	.	.	.	.	.	.	.	.	.	.	.	.	.	.	.	8.c\	gwia-	.
.	.	.	.	.	.	.	.	.	.	.	.	.	.	.	.	.	.	16B-\	-zdy	.
*v	*v	*	*	*	*	*	*	*	*	*	*	*	*	*	*	*	*	*	*	*
=13	=13	=13	=13	=13	=13	=13	=13	=13	=13	=13	=13	=13	=13	=13	=13	=13	=13	=13	=13
4r	.	4r	.	.	1ryy	.	.	1ryy	.	.	1ryy	.	.	1ryy	.	.	4.A-X/	nad	.
4F 4FF/	.	4a-X 4f 4c/	.	.	.	.	.	.	.	.	.	.	.	.	.	.	.	.	.
.	.	.	.	.	.	.	.	.	.	.	.	.	.	.	.	.	8A-/	Bal-	.
4r	.	4r	.	.	.	.	.	.	.	.	.	.	.	.	.	.	(4f^\	-ty-	.
4c-X 4C-X\	.	[>4a- [<4f &(<4e-/	.	.	.	.	.	.	.	.	.	.	.	.	.	.	8.e-\L)	.	.
.	.	.	.	.	.	.	.	.	.	.	.	.	.	.	.	.	16d\Jk	-ku	.
!!LO:LB:g=original
=14	=14	=14	=14	=14	=14	=14	=14	=14	=14	=14	=14	=14	=14	=14	=14	=14	=14	=14	=14
8B- 8BB-\	.	8a-] 8f] 8d/&)	.	.	1ryy	.	.	1ryy	.	.	1ryy	.	.	1ryy	.	.	4d\	brze-	.
8r	.	8r	.	.	.	.	.	.	.	.	.	.	.	.	.	.	.	.	.
*clefG2	*	*	*	*	*	*	*	*	*	*	*	*	*	*	*	*	*	*	*
!	!	!LO:TUP:a	!	!	!	!	!	!	!	!	!	!	!	!	!	!	!	!	!
4f 4d/	.	12r	.	.	.	.	.	.	.	.	.	.	.	.	.	.	4d\	-giem;	.
.	.	(12bb-\L	.	<	.	.	.	.	.	.	.	.	.	.	.	.	.	.	.
.	.	12b-\J)	.	.	.	.	.	.	.	.	.	.	.	.	.	.	.	.	.
!	!	!LO:TUP:a	!	!	!	!	!	!	!	!	!	!	!	!	!	!	!	!	!
2g-X 2e-/	.	12r	.	.	.	.	.	.	.	.	.	.	.	.	.	.	2r	.	.
.	.	(12bb-\L	.	.	.	.	.	.	.	.	.	.	.	.	.	.	.	.	.
.	.	12b-\J)	.	.	.	.	.	.	.	.	.	.	.	.	.	.	.	.	.
!	!	!LO:TUP:a	!	!	!	!	!	!	!	!	!	!	!	!	!	!	!	!	!
.	.	12b-\L	.	.	.	.	.	.	.	.	.	.	.	.	.	.	.	.	.
.	.	12b-\	.	[	.	.	.	.	.	.	.	.	.	.	.	.	.	.	.
.	.	12b-\J	.	.	.	.	.	.	.	.	.	.	.	.	.	.	.	.	.
=15	=15	=15	=15	=15	=15	=15	=15	=15	=15	=15	=15	=15	=15	=15	=15	=15	=15	=15	=15
!	!	!LO:TUP:a	!	!	!	!	!	!	!	!	!	!	!	!	!	!	!	!	!
[4f [4d/	.	12cc\L	.	>	1ryy	.	.	1ryy	.	.	1ryy	.	.	1ryy	.	.	4r	.	.
.	.	(12b-\	.	.	.	.	.	.	.	.	.	.	.	.	.	.	.	.	.
.	.	12b-\J)	.	.	.	.	.	.	.	.	.	.	.	.	.	.	.	.	.
!	!	!	!	!	!	!	!	!	!	!	!	!	!	!	!	!	!	!	!LO:HP:a
4f] 4d/]	.	4b-\	.	]	.	.	.	.	.	.	.	.	.	.	.	.	8.B-\	co	<
.	.	.	.	.	.	.	.	.	.	.	.	.	.	.	.	.	16B-\	za	.
2r	.	2r	.	.	.	.	.	.	.	.	.	.	.	.	.	.	2d\	dźwięk?	[
=16	=16	=16	=16	=16	=16	=16	=16	=16	=16	=16	=16	=16	=16	=16	=16	=16	=16	=16	=16
1r	.	8.B-/L	.	p	1ryy	.	.	1ryy	.	.	1ryy	.	.	1ryy	.	.	1r	.	.
.	.	16B-/Jk	.	.	.	.	.	.	.	.	.	.	.	.	.	.	.	.	.
.	.	2.f^;/	.	.	.	.	.	.	.	.	.	.	.	.	.	.	.	.	.
*clefF4	*	*	*	*	*	*	*	*	*	*	*	*	*	*	*	*	*	*	*
=17||	=17||	=17||	=17||	=17||	=17||	=17||	=17||	=17||	=17||	=17||	=17||	=17||	=17||	=17||	=17||	=17||	=17||	=17||	=17||
*k[]	*	*k[]	*	*	*k[]	*	*	*k[]	*	*	*k[]	*	*	*k[]	*	*	*k[]	*	*
*	*	*	*	*	*	*	*	*	*	*	*	*	*	*	*	*	*	*	*
!!!OMD: All.o agitato.
!	!	!LO:TUP:b	!	!	!	!	!	!	!	!	!	!	!	!	!	!	!	!	!
4GG/	.	24G/LL	.	<	1ryy	.	.	1ryy	.	.	1ryy	.	.	1ryy	.	.	2r	.	.
.	.	24g/	.	.	.	.	.	.	.	.	.	.	.	.	.	.	.	.	.
.	.	24G/	.	.	.	.	.	.	.	.	.	.	.	.	.	.	.	.	.
.	.	24g/	.	.	.	.	.	.	.	.	.	.	.	.	.	.	.	.	.
.	.	24G/	.	.	.	.	.	.	.	.	.	.	.	.	.	.	.	.	.
.	.	24g/JJ	.	.	.	.	.	.	.	.	.	.	.	.	.	.	.	.	.
!LO:TUP:a	!	!LO:TUP:b	!	!	!	!	!	!	!	!	!	!	!	!	!	!	!	!	!
(>12A-X\L	.	24G/LL	.	.	.	.	.	.	.	.	.	.	.	.	.	.	.	.	.
.	.	24g/	.	.	.	.	.	.	.	.	.	.	.	.	.	.	.	.	.
12F\	.	24G/	.	.	.	.	.	.	.	.	.	.	.	.	.	.	.	.	.
.	.	24g/	.	.	.	.	.	.	.	.	.	.	.	.	.	.	.	.	.
12E-X\J	.	24G/	.	.	.	.	.	.	.	.	.	.	.	.	.	.	.	.	.
.	.	24g/JJ	.	.	.	.	.	.	.	.	.	.	.	.	.	.	.	.	.
!	!	!LO:TUP:b	!	!	!	!	!	!	!	!	!	!	!	!	!	!	!	!	!
4D\)	.	24G/LL	.	.	.	.	.	.	.	.	.	.	.	.	.	.	4r	.	.
.	.	24g/	.	.	.	.	.	.	.	.	.	.	.	.	.	.	.	.	.
.	.	24B/	.	.	.	.	.	.	.	.	.	.	.	.	.	.	.	.	.
.	.	24g/	.	.	.	.	.	.	.	.	.	.	.	.	.	.	.	.	.
.	.	24c/	.	.	.	.	.	.	.	.	.	.	.	.	.	.	.	.	.
.	.	24g/JJ	.	.	.	.	.	.	.	.	.	.	.	.	.	.	.	.	.
!	!	!	!	!	!	!	!	!	!	!	!	!	!	!	!	!	!LO:TX:a:i:t=a tempo.:rj	!	!
!	!	!LO:TUP:b	!	!	!	!	!	!	!	!	!	!	!	!	!	!	!	!	!
4r	.	24d/LL	.	.	.	.	.	.	.	.	.	.	.	.	.	.	8.G/	śpią-	.
.	.	24g/	.	.	.	.	.	.	.	.	.	.	.	.	.	.	.	.	.
.	.	24e-X/	.	.	.	.	.	.	.	.	.	.	.	.	.	.	.	.	.
.	.	24g/	.	.	.	.	.	.	.	.	.	.	.	.	.	.	.	.	.
.	.	24f/	.	.	.	.	.	.	.	.	.	.	.	.	.	.	.	.	.
.	.	.	.	.	.	.	.	.	.	.	.	.	.	.	.	.	16G/	-cy	.
.	.	24g/JJ	.	.	.	.	.	.	.	.	.	.	.	.	.	.	.	.	.
!!LO:PB:g=original
=18	=18	=18	=18	=18	=18	=18	=18	=18	=18	=18	=18	=18	=18	=18	=18	=18	=18	=18	=18
*k[b-e-]	*	*k[b-e-]	*	*	*k[b-e-]	*	*	*k[b-e-]	*	*	*k[b-e-]	*	*	*k[b-e-]	*	*	*k[b-e-]	*	*
*Xtuplet	*	*	*	*	*	*	*	*	*	*	*	*	*	*	*	*	*	*	*
*	*	*tremolo	*	*	*	*	*	*	*	*	*	*	*	*	*	*	*	*	*
!	!	!LO:TX:a:t=P:problem:w źródle pod tremolo oznaczenie grupy '12'	!	!	!	!	!	!	!	!	!	!	!	!	!	!	!	!	!
4GG/	.	24G/LL	.	.	1ryy	.	.	1ryy	.	.	1ryy	.	.	1ryy	.	.	4G\	nurt	.
.	.	24g/	.	.	.	.	.	.	.	.	.	.	.	.	.	.	.	.	.
.	.	24G/	.	.	.	.	.	.	.	.	.	.	.	.	.	.	.	.	.
.	.	24g/	.	.	.	.	.	.	.	.	.	.	.	.	.	.	.	.	.
.	.	24G/	.	.	.	.	.	.	.	.	.	.	.	.	.	.	.	.	.
.	.	24g/	.	.	.	.	.	.	.	.	.	.	.	.	.	.	.	.	.
(12A-X\L	.	24G/	.	.	.	.	.	.	.	.	.	.	.	.	.	.	4r	.	.
.	.	24g/	.	.	.	.	.	.	.	.	.	.	.	.	.	.	.	.	.
12F\	.	24G/	.	.	.	.	.	.	.	.	.	.	.	.	.	.	.	.	.
.	.	24g/	.	.	.	.	.	.	.	.	.	.	.	.	.	.	.	.	.
12E-X\J	.	24G/	.	.	.	.	.	.	.	.	.	.	.	.	.	.	.	.	.
.	.	24g/JJ	.	.	.	.	.	.	.	.	.	.	.	.	.	.	.	.	.
*	*	*Xtremolo	*	*	*	*	*	*	*	*	*	*	*	*	*	*	*	*	*
*	*	*Xtuplet	*	*	*	*	*	*	*	*	*	*	*	*	*	*	*	*	*
4C\)	.	24G/LL	.	.	.	.	.	.	.	.	.	.	.	.	.	.	8.G/	z da-	.
.	.	24g/	.	.	.	.	.	.	.	.	.	.	.	.	.	.	.	.	.
.	.	24Bn/	.	.	.	.	.	.	.	.	.	.	.	.	.	.	.	.	.
.	.	24g/	.	.	.	.	.	.	.	.	.	.	.	.	.	.	.	.	.
.	.	24c/	.	.	.	.	.	.	.	.	.	.	.	.	.	.	.	.	.
.	.	.	.	.	.	.	.	.	.	.	.	.	.	.	.	.	16G/	-la	.
.	.	24g/JJ	.	.	.	.	.	.	.	.	.	.	.	.	.	.	.	.	.
4r	.	24d/LL	.	.	.	.	.	.	.	.	.	.	.	.	.	.	8.G/	szu-	.
.	.	24g/	.	.	.	.	.	.	.	.	.	.	.	.	.	.	.	.	.
.	.	24e-X/	.	.	.	.	.	.	.	.	.	.	.	.	.	.	.	.	.
.	.	24g/	.	.	.	.	.	.	.	.	.	.	.	.	.	.	.	.	.
.	.	24f#X/	.	.	.	.	.	.	.	.	.	.	.	.	.	.	.	.	.
.	.	.	.	.	.	.	.	.	.	.	.	.	.	.	.	.	16G/	-mi	.
.	.	24g/JJ	.	.	.	.	.	.	.	.	.	.	.	.	.	.	.	.	.
*	*	*tuplet	*	*	*	*	*	*	*	*	*	*	*	*	*	*	*	*	*
=19	=19	=19	=19	=19	=19	=19	=19	=19	=19	=19	=19	=19	=19	=19	=19	=19	=19	=19	=19
*	*	*tremolo	*	*	*	*	*	*	*	*	*	*	*	*	*	*	*	*	*
!	!	!LO:TX:a:t=P:problem:w źródle pod tremolo oznaczenie grupy '12'	!	!	!	!	!	!	!	!	!	!	!	!	!	!	!	!	!
!	!	!	!	!	!	!	!	!	!	!	!	!	!	!	!	!	!LO:SIC:v:s=[2A-/	!	!
4AA-X/	.	24A-X/LL	.	.	1ryy	.	.	1ryy	.	.	1ryy	.	.	1ryy	.	.	[2A/	pod	.
.	.	24a-X/	.	.	.	.	.	.	.	.	.	.	.	.	.	.	.	.	.
.	.	24A-/	.	.	.	.	.	.	.	.	.	.	.	.	.	.	.	.	.
.	.	24a-/	.	.	.	.	.	.	.	.	.	.	.	.	.	.	.	.	.
.	.	24A-/	.	.	.	.	.	.	.	.	.	.	.	.	.	.	.	.	.
.	.	24a-/	.	.	.	.	.	.	.	.	.	.	.	.	.	.	.	.	.
(12B-X\L	.	24A-/	.	.	.	.	.	.	.	.	.	.	.	.	.	.	.	.	.
.	.	24a-/	.	.	.	.	.	.	.	.	.	.	.	.	.	.	.	.	.
12A-X\	.	24A-/	.	.	.	.	.	.	.	.	.	.	.	.	.	.	.	.	.
.	.	24a-/	.	.	.	.	.	.	.	.	.	.	.	.	.	.	.	.	.
12G-X\J	.	24A-/	.	.	.	.	.	.	.	.	.	.	.	.	.	.	.	.	.
.	.	24a-/JJ	.	.	.	.	.	.	.	.	.	.	.	.	.	.	.	.	.
*	*	*Xtremolo	*	*	*	*	*	*	*	*	*	*	*	*	*	*	*	*	*
*	*	*Xtuplet	*	*	*	*	*	*	*	*	*	*	*	*	*	*	*	*	*
!	!	!	!	!	!	!	!	!	!	!	!	!	!	!	!	!	!LO:SIC:v:s=8.A-/]	!	!
4E-\)	.	24A-/LL	.	.	.	.	.	.	.	.	.	.	.	.	.	.	8.A/]	.	.
.	.	24a-/	.	.	.	.	.	.	.	.	.	.	.	.	.	.	.	.	.
.	.	24c/	.	.	.	.	.	.	.	.	.	.	.	.	.	.	.	.	.
.	.	24a-/	.	.	.	.	.	.	.	.	.	.	.	.	.	.	.	.	.
.	.	24d-X/	.	.	.	.	.	.	.	.	.	.	.	.	.	.	.	.	.
!	!	!	!	!	!	!	!	!	!	!	!	!	!	!	!	!	!LO:SIC:v:s=16A-/	!	!
.	.	.	.	.	.	.	.	.	.	.	.	.	.	.	.	.	16A/	czó-	.
.	.	24a-/JJ	.	.	.	.	.	.	.	.	.	.	.	.	.	.	.	.	.
!	!	!	!	!	!	!	!	!	!	!	!	!	!	!	!	!	!LO:SIC:v:s=8.A-/	!	!
4r	.	24e-/LL	.	.	.	.	.	.	.	.	.	.	.	.	.	.	8.A/	-łen-	.
.	.	24a-/	.	.	.	.	.	.	.	.	.	.	.	.	.	.	.	.	.
.	.	24f/	.	.	.	.	.	.	.	.	.	.	.	.	.	.	.	.	.
.	.	24a-/	.	.	.	.	.	.	.	.	.	.	.	.	.	.	.	.	.
.	.	24g-X/	.	.	.	.	.	.	.	.	.	.	.	.	.	.	.	.	.
!	!	!	!	!	!	!	!	!	!	!	!	!	!	!	!	!	!LO:SIC:v:s=16A-/	!	!
.	.	.	.	.	.	.	.	.	.	.	.	.	.	.	.	.	16A/	-ka	.
.	.	24a-/JJ	.	.	.	.	.	.	.	.	.	.	.	.	.	.	.	.	.
*	*	*tuplet	*	*	*	*	*	*	*	*	*	*	*	*	*	*	*	*	*
=20	=20	=20	=20	=20	=20	=20	=20	=20	=20	=20	=20	=20	=20	=20	=20	=20	=20	=20	=20
*	*	*tremolo	*	*	*	*	*	*	*	*	*	*	*	*	*	*	*	*	*
!	!	!LO:TX:a:t=P:problem:w źródle pod tremolo oznaczenie grupy '12'	!	!	!	!	!	!	!	!	!	!	!	!	!	!	!	!	!
4AA-X/	.	24A-X/LL	.	.	1ryy	.	.	1ryy	.	.	1ryy	.	.	1ryy	.	.	2A-X/	bie-	.
.	.	24a-X/	.	.	.	.	.	.	.	.	.	.	.	.	.	.	.	.	.
.	.	24A-/	.	.	.	.	.	.	.	.	.	.	.	.	.	.	.	.	.
.	.	24a-/	.	.	.	.	.	.	.	.	.	.	.	.	.	.	.	.	.
.	.	24A-/	.	.	.	.	.	.	.	.	.	.	.	.	.	.	.	.	.
.	.	24a-/	.	.	.	.	.	.	.	.	.	.	.	.	.	.	.	.	.
(12B-X\L	.	24A-/	.	.	.	.	.	.	.	.	.	.	.	.	.	.	.	.	.
.	.	24a-/	.	.	.	.	.	.	.	.	.	.	.	.	.	.	.	.	.
12A-X\	.	24A-/	.	.	.	.	.	.	.	.	.	.	.	.	.	.	.	.	.
.	.	24a-/	.	.	.	.	.	.	.	.	.	.	.	.	.	.	.	.	.
12F\J	.	24A-/	.	.	.	.	.	.	.	.	.	.	.	.	.	.	.	.	.
.	.	24a-/JJ	.	.	.	.	.	.	.	.	.	.	.	.	.	.	.	.	.
*	*	*Xtremolo	*	*	*	*	*	*	*	*	*	*	*	*	*	*	*	*	*
*	*	*Xtuplet	*	*	*	*	*	*	*	*	*	*	*	*	*	*	*	*	*
4D-X\)	.	24A-/LL	.	.	.	.	.	.	.	.	.	.	.	.	.	.	4A-/	-giem.	.
.	.	24a-/	.	.	.	.	.	.	.	.	.	.	.	.	.	.	.	.	.
.	.	24d-X/	.	.	.	.	.	.	.	.	.	.	.	.	.	.	.	.	.
.	.	24a-/	.	.	.	.	.	.	.	.	.	.	.	.	.	.	.	.	.
.	.	24e-X/	.	.	.	.	.	.	.	.	.	.	.	.	.	.	.	.	.
.	.	24a-/JJ	.	.	.	.	.	.	.	.	.	.	.	.	.	.	.	.	.
4r	.	24f/LL	.	.	.	.	.	.	.	.	.	.	.	.	.	.	4r	.	.
.	.	24a-/	.	.	.	.	.	.	.	.	.	.	.	.	.	.	.	.	.
.	.	24g-X/	.	.	.	.	.	.	.	.	.	.	.	.	.	.	.	.	.
.	.	24a-/	.	.	.	.	.	.	.	.	.	.	.	.	.	.	.	.	.
.	.	24gn/	.	.	.	.	.	.	.	.	.	.	.	.	.	.	.	.	.
.	.	24a-/JJ	.	.	.	.	.	.	.	.	.	.	.	.	.	.	.	.	.
!!LO:LB:g=original
=21	=21	=21	=21	=21	=21	=21	=21	=21	=21	=21	=21	=21	=21	=21	=21	=21	=21	=21	=21
4BB-X/	.	24B-X/LL	.	.	1ryy	.	.	1ryy	.	.	1ryy	.	.	1ryy	.	.	2r	.	.
.	.	24b-X/	.	.	.	.	.	.	.	.	.	.	.	.	.	.	.	.	.
.	.	24B-/	.	.	.	.	.	.	.	.	.	.	.	.	.	.	.	.	.
.	.	24b-/	.	.	.	.	.	.	.	.	.	.	.	.	.	.	.	.	.
.	.	24B-/	.	.	.	.	.	.	.	.	.	.	.	.	.	.	.	.	.
.	.	24b-/JJ	.	.	.	.	.	.	.	.	.	.	.	.	.	.	.	.	.
(12c-X\L	.	24B-/LL	.	.	.	.	.	.	.	.	.	.	.	.	.	.	.	.	.
.	.	24b-/	.	.	.	.	.	.	.	.	.	.	.	.	.	.	.	.	.
12B-X\	.	24B-/	.	.	.	.	.	.	.	.	.	.	.	.	.	.	.	.	.
.	.	24b-/	.	.	.	.	.	.	.	.	.	.	.	.	.	.	.	.	.
12A-X\J	.	24B-/	.	.	.	.	.	.	.	.	.	.	.	.	.	.	.	.	.
.	.	24b-/JJ	.	.	.	.	.	.	.	.	.	.	.	.	.	.	.	.	.
4F\)	.	24B-/LL	.	.	.	.	.	.	.	.	.	.	.	.	.	.	4r	.	.
.	.	24b-/	.	.	.	.	.	.	.	.	.	.	.	.	.	.	.	.	.
.	.	24f/	.	.	.	.	.	.	.	.	.	.	.	.	.	.	.	.	.
.	.	24b-/	.	.	.	.	.	.	.	.	.	.	.	.	.	.	.	.	.
.	.	24g-X/	.	.	.	.	.	.	.	.	.	.	.	.	.	.	.	.	.
.	.	24b-/JJ	.	.	.	.	.	.	.	.	.	.	.	.	.	.	.	.	.
4Dn\	.	24a-X/LL	.	.	.	.	.	.	.	.	.	.	.	.	.	.	8r	.	.
.	.	24b-/	.	.	.	.	.	.	.	.	.	.	.	.	.	.	.	.	.
.	.	24an/	.	.	.	.	.	.	.	.	.	.	.	.	.	.	.	.	.
!	!	!	!	!	!	!	!	!	!	!	!	!	!	!	!	!	!LO:TX:a:Bi:t=recitativo.	!	!
.	.	24b-/	.	.	.	.	.	.	.	.	.	.	.	.	.	.	8B-\	Myś-	.
.	.	24B-/	.	.	.	.	.	.	.	.	.	.	.	.	.	.	.	.	.
.	.	24b-/JJ	.	.	.	.	.	.	.	.	.	.	.	.	.	.	.	.	.
*	*	*tuplet	*	*	*	*	*	*	*	*	*	*	*	*	*	*	*	*	*
=22	=22	=22	=22	=22	=22	=22	=22	=22	=22	=22	=22	=22	=22	=22	=22	=22	=22	=22	=22
4E- 4EE-/	.	4cc-X 4c-X/	.	.	1ryy	.	.	1ryy	.	.	1ryy	.	.	1ryy	.	.	8.Bn\	-liw-	.
.	.	.	.	.	.	.	.	.	.	.	.	.	.	.	.	.	16B\	-ców	.
4r	.	4r	.	.	.	.	.	.	.	.	.	.	.	.	.	.	4B\	król	.
2r	.	2r	.	.	.	.	.	.	.	.	.	.	.	.	.	.	4B\	jął	.
.	.	.	.	.	.	.	.	.	.	.	.	.	.	.	.	.	8.B\	wios-	.
.	.	.	.	.	.	.	.	.	.	.	.	.	.	.	.	.	16c#X\	-ło	.
=23	=23	=23	=23	=23	=23	=23	=23	=23	=23	=23	=23	=23	=23	=23	=23	=23	=23	=23	=23
1r	.	1r	.	.	1ryy	.	.	1ryy	.	.	1ryy	.	.	1ryy	.	.	[4d#X\	w dłoń,	.
.	.	.	.	.	.	.	.	.	.	.	.	.	.	.	.	.	8d#\]	.	.
.	.	.	.	.	.	.	.	.	.	.	.	.	.	.	.	.	8e-\	Dał	.
.	.	.	.	.	.	.	.	.	.	.	.	.	.	.	.	.	4f#X\	znak,	.
.	.	.	.	.	.	.	.	.	.	.	.	.	.	.	.	.	8A/	na-	.
.	.	.	.	.	.	.	.	.	.	.	.	.	.	.	.	.	8A/	-dął	.
.	.	.	.	.	.	.	.	.	.	.	.	.	.	.	.	.	.	.	.
!!LO:LB:g=original
=24	=24	=24	=24	=24	=24	=24	=24	=24	=24	=24	=24	=24	=24	=24	=24	=24	=24	=24	=24
1r	.	4r	.	.	1ryy	.	.	1ryy	.	.	1ryy	.	.	1ryy	.	.	(4cn\	róg,	.
.	.	8.r	.	f	.	.	.	.	.	.	.	.	.	.	.	.	4B-\)	.	.
.	.	.	.	.	.	.	.	.	.	.	.	.	.	.	.	.	.	.	.
!	!	!LO:TX:a:i:t=Tromp.	!	!	!	!	!	!	!	!	!	!	!	!	!	!	!	!	!
!	!	!LO:TX:b:i:t=a tempo.	!	!	!	!	!	!	!	!	!	!	!	!	!	!	!	!	!
.	.	16bn 16Bn/	.	.	.	.	.	.	.	.	.	.	.	.	.	.	.	.	.
.	.	4.b 4.B/	.	.	.	.	.	.	.	.	.	.	.	.	.	.	2r	.	.
.	.	.	.	.	.	.	.	.	.	.	.	.	.	.	.	.	.	.	.
.	.	8b 8B/	.	.	.	.	.	.	.	.	.	.	.	.	.	.	.	.	.
=25	=25	=25	=25	=25	=25	=25	=25	=25	=25	=25	=25	=25	=25	=25	=25	=25	=25	=25	=25
1r	.	4b- 4B-/	.	.	1ryy	.	.	1ryy	.	.	1ryy	.	.	1ryy	.	.	1r	.	.
.	.	4b- 4B-/	.	.	.	.	.	.	.	.	.	.	.	.	.	.	.	.	.
.	.	4b- 4B-/	.	.	.	.	.	.	.	.	.	.	.	.	.	.	.	.	.
.	.	4b- 4B-/	.	.	.	.	.	.	.	.	.	.	.	.	.	.	.	.	.
=26	=26	=26	=26	=26	=26	=26	=26	=26	=26	=26	=26	=26	=26	=26	=26	=26	=26	=26	=26
*	*	*	*	*^	*	*	*	*	*	*	*	*	*	*	*	*	*	*	*
*tremolo	*	*	*	*	*	*	*	*	*	*	*	*	*	*	*	*	*	*	*	*
!	!	!	!	!LO:DY:b:rj	!LO:DY:b=2:rj	!	!	!	!	!	!	!	!	!	!	!	!	!	!	!
16CC/LL	.	2.f#X 2.e- 2.A/	.	sf	f	1ryy	.	.	1ryy	.	.	1ryy	.	.	1ryy	.	.	1r	.	.
16C/	.	.	.	.	.	.	.	.	.	.	.	.	.	.	.	.	.	.	.	.
16CC/	.	.	.	.	.	.	.	.	.	.	.	.	.	.	.	.	.	.	.	.
16C/	.	.	.	.	.	.	.	.	.	.	.	.	.	.	.	.	.	.	.	.
16CC/	.	.	.	.	.	.	.	.	.	.	.	.	.	.	.	.	.	.	.	.
16C/	.	.	.	.	.	.	.	.	.	.	.	.	.	.	.	.	.	.	.	.
16CC/	.	.	.	.	.	.	.	.	.	.	.	.	.	.	.	.	.	.	.	.
16C/JJ	.	.	.	.	.	.	.	.	.	.	.	.	.	.	.	.	.	.	.	.
16CC/LL	.	.	.	.	.	.	.	.	.	.	.	.	.	.	.	.	.	.	.	.
16C/	.	.	.	.	.	.	.	.	.	.	.	.	.	.	.	.	.	.	.	.
16CC/	.	.	.	.	.	.	.	.	.	.	.	.	.	.	.	.	.	.	.	.
16C/	.	.	.	.	.	.	.	.	.	.	.	.	.	.	.	.	.	.	.	.
16CC/	.	4f# 4e- 4A#X/	.	.	.	.	.	.	.	.	.	.	.	.	.	.	.	.	.	.
16C/	.	.	.	.	.	.	.	.	.	.	.	.	.	.	.	.	.	.	.	.
16CC/	.	.	.	.	.	.	.	.	.	.	.	.	.	.	.	.	.	.	.	.
16C/JJ	.	.	.	.	.	.	.	.	.	.	.	.	.	.	.	.	.	.	.	.
*Xtremolo	*	*	*	*	*	*	*	*	*	*	*	*	*	*	*	*	*	*	*	*
*	*	*	*	*v	*v	*	*	*	*	*	*	*	*	*	*	*	*	*	*	*
=27	=27	=27	=27	=27	=27	=27	=27	=27	=27	=27	=27	=27	=27	=27	=27	=27	=27	=27	=27
*	*	*^	*	*	*	*	*	*	*	*	*	*	*	*	*	*	*	*	*
24BBB-/LL	.	4f#X 4d 4B#X/	2ryy	.	.	1ryy	.	.	1ryy	.	.	1ryy	.	.	1ryy	.	.	2r	.	.
24BB-/	.	.	.	.	.	.	.	.	.	.	.	.	.	.	.	.	.	.	.	.
24BBB-/	.	.	.	.	.	.	.	.	.	.	.	.	.	.	.	.	.	.	.	.
24BB-/	.	.	.	.	.	.	.	.	.	.	.	.	.	.	.	.	.	.	.	.
24BBB-/	.	.	.	.	.	.	.	.	.	.	.	.	.	.	.	.	.	.	.	.
24BB-/JJ	.	.	.	.	.	.	.	.	.	.	.	.	.	.	.	.	.	.	.	.
24BBB-/LL	.	4r	.	.	.	.	.	.	.	.	.	.	.	.	.	.	.	.	.	.
24BB-/	.	.	.	.	.	.	.	.	.	.	.	.	.	.	.	.	.	.	.	.
24BBB-/	.	.	.	.	.	.	.	.	.	.	.	.	.	.	.	.	.	.	.	.
24BB-/	.	.	.	.	.	.	.	.	.	.	.	.	.	.	.	.	.	.	.	.
24BBB-/	.	.	.	.	.	.	.	.	.	.	.	.	.	.	.	.	.	.	.	.
24BB-/JJ	.	.	.	.	.	.	.	.	.	.	.	.	.	.	.	.	.	.	.	.
*	*	*clefF4	*	*	*	*	*	*	*	*	*	*	*	*	*	*	*	*	*	*
*	*	*	*Xtuplet	*	*	*	*	*	*	*	*	*	*	*	*	*	*	*	*	*
!	!	!	!	!	!	!	!	!	!	!	!	!	!	!	!	!	!	!LO:TX:a:i:t=a tempo.:rj	!	!
!	!	!	!	!	!LO:DY:b:rj	!	!	!	!	!	!	!	!	!	!	!	!	!	!	!
24BBB-/LL	.	[2A/	24F#X\LL	.	sf	.	.	.	.	.	.	.	.	.	.	.	.	4r	.	.
24BB-/	.	.	24E-\	.	.	.	.	.	.	.	.	.	.	.	.	.	.	.	.	.
24BBB-/	.	.	24F#\	.	.	.	.	.	.	.	.	.	.	.	.	.	.	.	.	.
24BB-/	.	.	24E-\	.	.	.	.	.	.	.	.	.	.	.	.	.	.	.	.	.
24BBB-/	.	.	24F#\	.	.	.	.	.	.	.	.	.	.	.	.	.	.	.	.	.
24BB-/JJ	.	.	24E-\JJ	.	.	.	.	.	.	.	.	.	.	.	.	.	.	.	.	.
24BBB-/LL	.	.	24F#\LL	.	.	.	.	.	.	.	.	.	.	.	.	.	.	8.B-\	sil-	.
24BB-/	.	.	24E-\	.	.	.	.	.	.	.	.	.	.	.	.	.	.	.	.	.
24BBB-/	.	.	24F#\	.	.	.	.	.	.	.	.	.	.	.	.	.	.	.	.	.
24BB-/	.	.	24E-\	.	.	.	.	.	.	.	.	.	.	.	.	.	.	.	.	.
24BBB-/	.	.	24F#\	.	.	.	.	.	.	.	.	.	.	.	.	.	.	.	.	.
.	.	.	.	.	.	.	.	.	.	.	.	.	.	.	.	.	.	16B-\	-nym	.
24BB-/JJ	.	.	24E-\JJ	.	.	.	.	.	.	.	.	.	.	.	.	.	.	.	.	.
!!LO:LB:g=original
=28	=28	=28	=28	=28	=28	=28	=28	=28	=28	=28	=28	=28	=28	=28	=28	=28	=28	=28	=28	=28
!LO:TX:a:Bi:t=poco a poco:dur=2q:ext=s:problem:text with extention lines	!	!	!	!	!	!	!	!	!	!	!	!	!	!	!	!	!	!	!	!
24BBB-/LL	.	4A/]	4F#X\	.	.	1ryy	.	.	1ryy	.	.	1ryy	.	.	1ryy	.	.	4B-\	na-	.
24BB-/	.	.	.	.	.	.	.	.	.	.	.	.	.	.	.	.	.	.	.	.
24BBB-/	.	.	.	.	.	.	.	.	.	.	.	.	.	.	.	.	.	.	.	.
24BB-/	.	.	.	.	.	.	.	.	.	.	.	.	.	.	.	.	.	.	.	.
24BBB-/	.	.	.	.	.	.	.	.	.	.	.	.	.	.	.	.	.	.	.	.
24BB-/JJ	.	.	.	.	.	.	.	.	.	.	.	.	.	.	.	.	.	.	.	.
24BBB-/LL	.	4r	4ryy	.	.	.	.	.	.	.	.	.	.	.	.	.	.	8B-\	-dął	.
24BB-/	.	.	.	.	.	.	.	.	.	.	.	.	.	.	.	.	.	.	.	.
24BBB-/	.	.	.	.	.	.	.	.	.	.	.	.	.	.	.	.	.	.	.	.
24BB-/	.	.	.	.	.	.	.	.	.	.	.	.	.	.	.	.	.	8B-\	róg	.
24BBB-/	.	.	.	.	.	.	.	.	.	.	.	.	.	.	.	.	.	.	.	.
24BB-/JJ	.	.	.	.	.	.	.	.	.	.	.	.	.	.	.	.	.	.	.	.
24BBB-/LL	.	[2c/	24A\LL	.	.	.	.	.	.	.	.	.	.	.	.	.	.	4r	.	.
24BB-/	.	.	24G\	.	.	.	.	.	.	.	.	.	.	.	.	.	.	.	.	.
24BBB-/	.	.	24A\	.	.	.	.	.	.	.	.	.	.	.	.	.	.	.	.	.
24BB-/	.	.	24G\	.	.	.	.	.	.	.	.	.	.	.	.	.	.	.	.	.
24BBB-/	.	.	24A\	.	.	.	.	.	.	.	.	.	.	.	.	.	.	.	.	.
24BB-/JJ	.	.	24G\JJ	.	.	.	.	.	.	.	.	.	.	.	.	.	.	.	.	.
24BBB-/LL	.	.	24F#\LL	.	.	.	.	.	.	.	.	.	.	.	.	.	.	8r	.	.
24BB-/	.	.	24G\	.	.	.	.	.	.	.	.	.	.	.	.	.	.	.	.	.
24BBB-/	.	.	24F#\	.	.	.	.	.	.	.	.	.	.	.	.	.	.	.	.	.
24BB-/	.	.	24G\	.	.	.	.	.	.	.	.	.	.	.	.	.	.	8B-\	od-	.
24BBB-/	.	.	24F#\	.	.	.	.	.	.	.	.	.	.	.	.	.	.	.	.	.
24BB-/JJ	.	.	24G\JJ	.	.	.	.	.	.	.	.	.	.	.	.	.	.	.	.	.
*tuplet	*	*	*	*	*	*	*	*	*	*	*	*	*	*	*	*	*	*	*	*
=29	=29	=29	=29	=29	=29	=29	=29	=29	=29	=29	=29	=29	=29	=29	=29	=29	=29	=29	=29	=29
*tremolo	*	*	*	*	*	*	*	*	*	*	*	*	*	*	*	*	*	*	*	*
!LO:TX:a:Bi:t=cres-cen-do.:dur=2w:ext=ud:problem:dynamics with extention lines	!	!	!	!	!	!	!	!	!	!	!	!	!	!	!	!	!	!	!	!
24BBB-/LL	.	4c] 4A\	4ryy	.	<	1ryy	.	.	1ryy	.	.	1ryy	.	.	1ryy	.	.	(2f#X\	-de-	.
24BB-/	.	.	.	.	.	.	.	.	.	.	.	.	.	.	.	.	.	.	.	.
24BBB-/	.	.	.	.	.	.	.	.	.	.	.	.	.	.	.	.	.	.	.	.
24BB-/	.	.	.	.	.	.	.	.	.	.	.	.	.	.	.	.	.	.	.	.
24BBB-/	.	.	.	.	.	.	.	.	.	.	.	.	.	.	.	.	.	.	.	.
24BB-/	.	.	.	.	.	.	.	.	.	.	.	.	.	.	.	.	.	.	.	.
24BBB-/	.	4r	4ryy	.	.	.	.	.	.	.	.	.	.	.	.	.	.	.	.	.
24BB-/	.	.	.	.	.	.	.	.	.	.	.	.	.	.	.	.	.	.	.	.
24BBB-/	.	.	.	.	.	.	.	.	.	.	.	.	.	.	.	.	.	.	.	.
24BB-/	.	.	.	.	.	.	.	.	.	.	.	.	.	.	.	.	.	.	.	.
24BBB-/	.	.	.	.	.	.	.	.	.	.	.	.	.	.	.	.	.	.	.	.
24BB-/JJ	.	.	.	.	.	.	.	.	.	.	.	.	.	.	.	.	.	.	.	.
*Xtremolo	*	*	*	*	*	*	*	*	*	*	*	*	*	*	*	*	*	*	*	*
*	*	*clefG2	*	*	*	*	*	*	*	*	*	*	*	*	*	*	*	*	*	*
*Xtuplet	*	*	*	*	*	*	*	*	*	*	*	*	*	*	*	*	*	*	*	*
24BBB-/LL	.	[2f#X/	24c\LL	.	.	.	.	.	.	.	.	.	.	.	.	.	.	4ryy	.	.
24BB-/	.	.	24B-\	.	.	.	.	.	.	.	.	.	.	.	.	.	.	.	.	.
24BBB-/	.	.	24c\	.	.	.	.	.	.	.	.	.	.	.	.	.	.	.	.	.
24BB-/	.	.	24B-\	.	.	.	.	.	.	.	.	.	.	.	.	.	.	.	.	.
24BBB-/	.	.	24c\	.	.	.	.	.	.	.	.	.	.	.	.	.	.	.	.	.
24BB-/JJ	.	.	24B-\JJ	.	.	.	.	.	.	.	.	.	.	.	.	.	.	.	.	.
24BBB-/LL	.	.	24A\LL	.	.	.	.	.	.	.	.	.	.	.	.	.	.	4en\)	.	.
24BB-/	.	.	24B-\	.	.	.	.	.	.	.	.	.	.	.	.	.	.	.	.	.
24BBB-/	.	.	24A\	.	.	.	.	.	.	.	.	.	.	.	.	.	.	.	.	.
24BB-/	.	.	24B-\	.	.	.	.	.	.	.	.	.	.	.	.	.	.	.	.	.
24BBB-/	.	.	24A\	.	.	.	.	.	.	.	.	.	.	.	.	.	.	.	.	.
24BB-/JJ	.	.	24B-\JJ	.	.	.	.	.	.	.	.	.	.	.	.	.	.	.	.	.
*tuplet	*	*	*	*	*	*	*	*	*	*	*	*	*	*	*	*	*	*	*	*
=30	=30	=30	=30	=30	=30	=30	=30	=30	=30	=30	=30	=30	=30	=30	=30	=30	=30	=30	=30	=30
*tremolo	*	*	*	*	*	*	*	*	*	*	*	*	*	*	*	*	*	*	*	*
24BBB-/LL	.	4f#X/]	4c\	.	.	1ryy	.	.	1ryy	.	.	1ryy	.	.	1ryy	.	.	2d#X\	-chem:	.
24BB-/	.	.	.	.	.	.	.	.	.	.	.	.	.	.	.	.	.	.	.	.
24BBB-/	.	.	.	.	.	.	.	.	.	.	.	.	.	.	.	.	.	.	.	.
24BB-/	.	.	.	.	.	.	.	.	.	.	.	.	.	.	.	.	.	.	.	.
24BBB-/	.	.	.	.	.	.	.	.	.	.	.	.	.	.	.	.	.	.	.	.
24BB-/	.	.	.	.	.	.	.	.	.	.	.	.	.	.	.	.	.	.	.	.
24BBB-/	.	4r	4ryy	.	.	.	.	.	.	.	.	.	.	.	.	.	.	.	.	.
24BB-/	.	.	.	.	.	.	.	.	.	.	.	.	.	.	.	.	.	.	.	.
24BBB-/	.	.	.	.	.	.	.	.	.	.	.	.	.	.	.	.	.	.	.	.
24BB-/	.	.	.	.	.	.	.	.	.	.	.	.	.	.	.	.	.	.	.	.
24BBB-/	.	.	.	.	.	.	.	.	.	.	.	.	.	.	.	.	.	.	.	.
24BB-/JJ	.	.	.	.	.	.	.	.	.	.	.	.	.	.	.	.	.	.	.	.
*Xtremolo	*	*	*	*	*	*	*	*	*	*	*	*	*	*	*	*	*	*	*	*
*Xtuplet	*	*	*	*	*	*	*	*	*	*	*	*	*	*	*	*	*	*	*	*
24BBB-/LL	.	[2a/	24f#\LL	.	.	.	.	.	.	.	.	.	.	.	.	.	.	4r	.	.
24BB-/	.	.	24e-\	.	.	.	.	.	.	.	.	.	.	.	.	.	.	.	.	.
24BBB-/	.	.	24f#\	.	.	.	.	.	.	.	.	.	.	.	.	.	.	.	.	.
24BB-/	.	.	24e-\	.	.	.	.	.	.	.	.	.	.	.	.	.	.	.	.	.
24BBB-/	.	.	24f#\	.	.	.	.	.	.	.	.	.	.	.	.	.	.	.	.	.
24BB-/JJ	.	.	24e-\JJ	.	.	.	.	.	.	.	.	.	.	.	.	.	.	.	.	.
24BBB-/LL	.	.	24d#X\LL	.	.	.	.	.	.	.	.	.	.	.	.	.	.	8r	.	.
24BB-/	.	.	24e-\	.	.	.	.	.	.	.	.	.	.	.	.	.	.	.	.	.
24BBB-/	.	.	24d#\	.	.	.	.	.	.	.	.	.	.	.	.	.	.	.	.	.
24BB-/	.	.	24e-\	.	.	.	.	.	.	.	.	.	.	.	.	.	.	8B-\	Las	.
24BBB-/	.	.	24d#\	.	.	.	.	.	.	.	.	.	.	.	.	.	.	.	.	.
24BB-/JJ	.	.	24e-\JJ	.	[[	.	.	.	.	.	.	.	.	.	.	.	.	.	.	.
*tuplet	*	*	*	*	*	*	*	*	*	*	*	*	*	*	*	*	*	*	*	*
!!LO:PB:g=original
=31	=31	=31	=31	=31	=31	=31	=31	=31	=31	=31	=31	=31	=31	=31	=31	=31	=31	=31	=31	=31
*tremolo	*	*	*	*	*	*	*	*	*	*	*	*	*	*	*	*	*	*	*	*
!LO:TX:a:t=P:problem:w źródle do zmiany tonacji tremola zapisane jako 2 półnuty z kropkami połaczone podwójną belką	!	!	!	!	!	!	!	!	!	!	!	!	!	!	!	!	!	!	!	!
24BBB-/LL	.	4a/]	4f#X\	.	.	1ryy	.	.	1ryy	.	.	1ryy	.	.	1ryy	.	.	8c\	po-	.
24BB-/	.	.	.	.	.	.	.	.	.	.	.	.	.	.	.	.	.	.	.	.
24BBB-/	.	.	.	.	.	.	.	.	.	.	.	.	.	.	.	.	.	.	.	.
24BB-/	.	.	.	.	.	.	.	.	.	.	.	.	.	.	.	.	.	8c\	-la,	.
24BBB-/	.	.	.	.	.	.	.	.	.	.	.	.	.	.	.	.	.	.	.	.
24BB-/	.	.	.	.	.	.	.	.	.	.	.	.	.	.	.	.	.	.	.	.
24BBB-/	.	4r	4ryy	.	.	.	.	.	.	.	.	.	.	.	.	.	.	8c\	mo-	.
24BB-/	.	.	.	.	.	.	.	.	.	.	.	.	.	.	.	.	.	.	.	.
24BBB-/	.	.	.	.	.	.	.	.	.	.	.	.	.	.	.	.	.	.	.	.
24BB-/	.	.	.	.	.	.	.	.	.	.	.	.	.	.	.	.	.	8c\	-rze,	.
24BBB-/	.	.	.	.	.	.	.	.	.	.	.	.	.	.	.	.	.	.	.	.
24BB-/JJ	.	.	.	.	.	.	.	.	.	.	.	.	.	.	.	.	.	.	.	.
24BBB-/LL	.	[2cc/	24a\LL	.	.	.	.	.	.	.	.	.	.	.	.	.	.	4.c\	brzmią	.
24BB-/	.	.	24g\	.	.	.	.	.	.	.	.	.	.	.	.	.	.	.	.	.
24BBB-/	.	.	24a\	.	.	.	.	.	.	.	.	.	.	.	.	.	.	.	.	.
24BB-/	.	.	24g\	.	.	.	.	.	.	.	.	.	.	.	.	.	.	.	.	.
24BBB-/	.	.	24a\	.	.	.	.	.	.	.	.	.	.	.	.	.	.	.	.	.
24BB-/	.	.	24g\JJ	.	.	.	.	.	.	.	.	.	.	.	.	.	.	.	.	.
24BBB-/	.	.	24f#X\LL	.	.	.	.	.	.	.	.	.	.	.	.	.	.	.	.	.
24BB-/	.	.	24g\	.	.	.	.	.	.	.	.	.	.	.	.	.	.	.	.	.
24BBB-/	.	.	24f#\	.	.	.	.	.	.	.	.	.	.	.	.	.	.	.	.	.
24BB-/	.	.	24g\	.	.	.	.	.	.	.	.	.	.	.	.	.	.	8c\	roz-	.
24BBB-/	.	.	24f#\	.	.	.	.	.	.	.	.	.	.	.	.	.	.	.	.	.
24BB-/JJ	.	.	24g\JJ	.	.	.	.	.	.	.	.	.	.	.	.	.	.	.	.	.
=32	=32	=32	=32	=32	=32	=32	=32	=32	=32	=32	=32	=32	=32	=32	=32	=32	=32	=32	=32	=32
!LO:TX:a:Bi:t=sempre. cres.:dur=2qs:ext=s:problem:dynamics with extention lines	!	!	!	!	!	!	!	!	!	!	!	!	!	!	!	!	!	!	!	!
24BBB-/LL	.	4cc/]	4a\	.	<	1ryy	.	.	1ryy	.	.	1ryy	.	.	1ryy	.	.	(4c\	-głoś-	.
24BB-/	.	.	.	.	.	.	.	.	.	.	.	.	.	.	.	.	.	.	.	.
24BBB-/	.	.	.	.	.	.	.	.	.	.	.	.	.	.	.	.	.	.	.	.
24BB-/	.	.	.	.	.	.	.	.	.	.	.	.	.	.	.	.	.	.	.	.
24BBB-/	.	.	.	.	.	.	.	.	.	.	.	.	.	.	.	.	.	.	.	.
24BB-/	.	.	.	.	.	.	.	.	.	.	.	.	.	.	.	.	.	.	.	.
24BBB-/	.	4r	4ryy	.	.	.	.	.	.	.	.	.	.	.	.	.	.	8Bn\)	.	.
24BB-/	.	.	.	.	.	.	.	.	.	.	.	.	.	.	.	.	.	.	.	.
24BBB-/	.	.	.	.	.	.	.	.	.	.	.	.	.	.	.	.	.	.	.	.
24BB-/	.	.	.	.	.	.	.	.	.	.	.	.	.	.	.	.	.	8A/	-nem	.
24BBB-/	.	.	.	.	.	.	.	.	.	.	.	.	.	.	.	.	.	.	.	.
24BB-/JJ	.	.	.	.	.	.	.	.	.	.	.	.	.	.	.	.	.	.	.	.
24BBB-/LL	.	2dd#X/	24cc\LL	.	.	.	.	.	.	.	.	.	.	.	.	.	.	4d#\	e-	.
24BB-/	.	.	24a\	.	[[	.	.	.	.	.	.	.	.	.	.	.	.	.	.	.
24BBB-/	.	.	24cc\	.	.	.	.	.	.	.	.	.	.	.	.	.	.	.	.	.
24BB-/	.	.	24a\	.	.	.	.	.	.	.	.	.	.	.	.	.	.	.	.	.
24BBB-/	.	.	24cc\	.	.	.	.	.	.	.	.	.	.	.	.	.	.	.	.	.
24BB-/	.	.	24a\JJ	.	.	.	.	.	.	.	.	.	.	.	.	.	.	.	.	.
24BBB-/	.	.	24a\LL	.	.	.	.	.	.	.	.	.	.	.	.	.	.	8d#\	-chem,	.
24BB-/	.	.	24b-\	.	.	.	.	.	.	.	.	.	.	.	.	.	.	.	.	.
24BBB-/	.	.	24a\	.	.	.	.	.	.	.	.	.	.	.	.	.	.	.	.	.
24BB-/	.	.	24b-\	.	.	.	.	.	.	.	.	.	.	.	.	.	.	8r	.	.
24BBB-/	.	.	24a\	.	.	.	.	.	.	.	.	.	.	.	.	.	.	.	.	.
24BB-/JJ	.	.	24b-\JJ	.	.	.	.	.	.	.	.	.	.	.	.	.	.	.	.	.
=33	=33	=33	=33	=33	=33	=33	=33	=33	=33	=33	=33	=33	=33	=33	=33	=33	=33	=33	=33	=33
24BBB-/LL	.	24ff#X/LL	2a\	.	.	1ryy	.	.	1ryy	.	.	1ryy	.	.	1ryy	.	.	2r	.	.
24BB-/	.	24ee-/	.	.	.	.	.	.	.	.	.	.	.	.	.	.	.	.	.	.
24BBB-/	.	24ff#/	.	.	.	.	.	.	.	.	.	.	.	.	.	.	.	.	.	.
24BB-/	.	24ee-/	.	.	.	.	.	.	.	.	.	.	.	.	.	.	.	.	.	.
24BBB-/	.	24ff#/	.	.	.	.	.	.	.	.	.	.	.	.	.	.	.	.	.	.
24BB-/	.	24ee-/JJ	.	.	.	.	.	.	.	.	.	.	.	.	.	.	.	.	.	.
24BBB-/	.	24dd#X/LL	.	.	.	.	.	.	.	.	.	.	.	.	.	.	.	.	.	.
24BB-/	.	24ee-/	.	.	.	.	.	.	.	.	.	.	.	.	.	.	.	.	.	.
24BBB-/	.	24dd#/	.	.	.	.	.	.	.	.	.	.	.	.	.	.	.	.	.	.
24BB-/	.	24ee-/	.	.	.	.	.	.	.	.	.	.	.	.	.	.	.	.	.	.
24BBB-/	.	24dd#/	.	.	.	.	.	.	.	.	.	.	.	.	.	.	.	.	.	.
24BB-/JJ	.	24ee-/JJ	.	.	.	.	.	.	.	.	.	.	.	.	.	.	.	.	.	.
24BBB-/LL	.	2aa/	24ff#\LL	.	.	.	.	.	.	.	.	.	.	.	.	.	.	4r	.	.
24BB-/	.	.	24ee-\	.	.	.	.	.	.	.	.	.	.	.	.	.	.	.	.	.
24BBB-/	.	.	24ff#\	.	.	.	.	.	.	.	.	.	.	.	.	.	.	.	.	.
24BB-/	.	.	24ee-\	.	.	.	.	.	.	.	.	.	.	.	.	.	.	.	.	.
24BBB-/	.	.	24ff#\	.	.	.	.	.	.	.	.	.	.	.	.	.	.	.	.	.
24BB-/	.	.	24ee-\JJ	.	.	.	.	.	.	.	.	.	.	.	.	.	.	.	.	.
24BBB-/	.	.	24dd#\LL	.	.	.	.	.	.	.	.	.	.	.	.	.	.	8d#X\	bie-	.
24BB-/	.	.	24ee-\	.	.	.	.	.	.	.	.	.	.	.	.	.	.	.	.	.
24BBB-/	.	.	24dd#\	.	.	.	.	.	.	.	.	.	.	.	.	.	.	.	.	.
24BB-/	.	.	24ee-\	.	.	.	.	.	.	.	.	.	.	.	.	.	.	8d#\	-gnie	.
24BBB-/	.	.	24dd#\	.	.	.	.	.	.	.	.	.	.	.	.	.	.	.	.	.
24BB-/JJ	.	.	24ee-\JJ	.	.	.	.	.	.	.	.	.	.	.	.	.	.	.	.	.
!!LO:LB:g=original
=34	=34	=34	=34	=34	=34	=34	=34	=34	=34	=34	=34	=34	=34	=34	=34	=34	=34	=34	=34	=34
24BBB-/LL	.	(2ccc/	24aa\LL	.	.	1ryy	.	.	1ryy	.	.	1ryy	.	.	1ryy	.	.	2d#X\	dzicz	.
24BB-/	.	.	24gg#X\	.	.	.	.	.	.	.	.	.	.	.	.	.	.	.	.	.
24BBB-/	.	.	24aa\	.	.	.	.	.	.	.	.	.	.	.	.	.	.	.	.	.
24BB-/	.	.	24gg#\	.	.	.	.	.	.	.	.	.	.	.	.	.	.	.	.	.
24BBB-/	.	.	24aa\	.	.	.	.	.	.	.	.	.	.	.	.	.	.	.	.	.
24BB-/	.	.	24gg#\JJ	.	.	.	.	.	.	.	.	.	.	.	.	.	.	.	.	.
24BBB-/	.	.	24aa\LL	.	.	.	.	.	.	.	.	.	.	.	.	.	.	.	.	.
24BB-/	.	.	24gg#\	.	.	.	.	.	.	.	.	.	.	.	.	.	.	.	.	.
24BBB-/	.	.	24aa\	.	.	.	.	.	.	.	.	.	.	.	.	.	.	.	.	.
24BB-/	.	.	24gg#\	.	.	.	.	.	.	.	.	.	.	.	.	.	.	.	.	.
24BBB-/	.	.	24aa\	.	.	.	.	.	.	.	.	.	.	.	.	.	.	.	.	.
24BB-/JJ	.	.	24ggn\JJ	.	.	.	.	.	.	.	.	.	.	.	.	.	.	.	.	.
24BBB-/LL	.	(2aa/)	24ff#X\LL	.	.	.	.	.	.	.	.	.	.	.	.	.	.	4d#\	i	.
24BB-/	.	.	24ee-\	.	.	.	.	.	.	.	.	.	.	.	.	.	.	.	.	.
24BBB-/	.	.	24ff#\	.	.	.	.	.	.	.	.	.	.	.	.	.	.	.	.	.
24BB-/	.	.	24ee-\	.	.	.	.	.	.	.	.	.	.	.	.	.	.	.	.	.
24BBB-/	.	.	24ff#\	.	.	.	.	.	.	.	.	.	.	.	.	.	.	.	.	.
24BB-/	.	.	24ee-\JJ	.	.	.	.	.	.	.	.	.	.	.	.	.	.	.	.	.
24BBB-/	.	.	24ff#\LL	.	.	.	.	.	.	.	.	.	.	.	.	.	.	8d#\	błysz-	.
24BB-/	.	.	24ee-\	.	.	.	.	.	.	.	.	.	.	.	.	.	.	.	.	.
24BBB-/	.	.	24ff#\	.	.	.	.	.	.	.	.	.	.	.	.	.	.	.	.	.
24BB-/	.	.	24ee-\	.	.	.	.	.	.	.	.	.	.	.	.	.	.	8d#\	-czy	.
24BBB-/	.	.	24ff#\	.	.	.	.	.	.	.	.	.	.	.	.	.	.	.	.	.
24BB-/JJ	.	.	24ee-\JJ	.	.	.	.	.	.	.	.	.	.	.	.	.	.	.	.	.
=35	=35	=35	=35	=35	=35	=35	=35	=35	=35	=35	=35	=35	=35	=35	=35	=35	=35	=35	=35	=35
24BBB-/LL	.	4ff#X/)	24dd#X\LL	.	.	1ryy	.	.	1ryy	.	.	1ryy	.	.	1ryy	.	.	2d#X\	broń!	.
24BB-/	.	.	24b-\	.	.	.	.	.	.	.	.	.	.	.	.	.	.	.	.	.
24BBB-/	.	.	24cc\	.	.	.	.	.	.	.	.	.	.	.	.	.	.	.	.	.
24BB-/	.	.	24b-\	.	.	.	.	.	.	.	.	.	.	.	.	.	.	.	.	.
24BBB-/	.	.	24cc\	.	.	.	.	.	.	.	.	.	.	.	.	.	.	.	.	.
24BB-/	.	.	24b-\JJ	.	.	.	.	.	.	.	.	.	.	.	.	.	.	.	.	.
24BBB-/	.	4dd#X/	24cc\LL	.	.	.	.	.	.	.	.	.	.	.	.	.	.	.	.	.
24BB-/	.	.	24b-\	.	.	.	.	.	.	.	.	.	.	.	.	.	.	.	.	.
24BBB-/	.	.	24cc\	.	.	.	.	.	.	.	.	.	.	.	.	.	.	.	.	.
24BB-/	.	.	24b-\	.	.	.	.	.	.	.	.	.	.	.	.	.	.	.	.	.
24BBB-/	.	.	24cc\	.	.	.	.	.	.	.	.	.	.	.	.	.	.	.	.	.
24BB-/JJ	.	.	24b-\JJ	.	.	.	.	.	.	.	.	.	.	.	.	.	.	.	.	.
24BBB-/LL	.	2cc/	24a\LL	.	.	.	.	.	.	.	.	.	.	.	.	.	.	2r	.	.
24BB-/	.	.	24g#X\	.	.	.	.	.	.	.	.	.	.	.	.	.	.	.	.	.
24BBB-/	.	.	24a\	.	.	.	.	.	.	.	.	.	.	.	.	.	.	.	.	.
24BB-/	.	.	24g#\	.	.	.	.	.	.	.	.	.	.	.	.	.	.	.	.	.
24BBB-/	.	.	24a\	.	.	.	.	.	.	.	.	.	.	.	.	.	.	.	.	.
24BB-/	.	.	24g#\JJ	.	.	.	.	.	.	.	.	.	.	.	.	.	.	.	.	.
24BBB-/	.	.	24a\LL	.	.	.	.	.	.	.	.	.	.	.	.	.	.	.	.	.
24BB-/	.	.	24g#\	.	.	.	.	.	.	.	.	.	.	.	.	.	.	.	.	.
24BBB-/	.	.	24a\	.	.	.	.	.	.	.	.	.	.	.	.	.	.	.	.	.
24BB-/	.	.	24g#\	.	.	.	.	.	.	.	.	.	.	.	.	.	.	.	.	.
24BBB-/	.	.	24a\	.	.	.	.	.	.	.	.	.	.	.	.	.	.	.	.	.
24BB-/JJ	.	.	24gn\JJ	.	.	.	.	.	.	.	.	.	.	.	.	.	.	.	.	.
!!LO:LB:g=original
=36	=36	=36	=36	=36	=36	=36	=36	=36	=36	=36	=36	=36	=36	=36	=36	=36	=36	=36	=36	=36
!	!	!	!	!	!LO:HP:a	!	!	!	!	!	!	!	!	!	!	!	!	!	!	!
24BBB-/LL	.	2a/	24f#X\LL	.	<	1ryy	.	.	1ryy	.	.	1ryy	.	.	1ryy	.	.	1r	.	.
24BB-/	.	.	24e-\	.	.	.	.	.	.	.	.	.	.	.	.	.	.	.	.	.
24BBB-/	.	.	24f#\	.	.	.	.	.	.	.	.	.	.	.	.	.	.	.	.	.
24BB-/	.	.	24e-\	.	.	.	.	.	.	.	.	.	.	.	.	.	.	.	.	.
24BBB-/	.	.	24f#\	.	.	.	.	.	.	.	.	.	.	.	.	.	.	.	.	.
24BB-/	.	.	24e-\JJ	.	.	.	.	.	.	.	.	.	.	.	.	.	.	.	.	.
24BBB-/	.	.	24f#\LL	.	.	.	.	.	.	.	.	.	.	.	.	.	.	.	.	.
24BB-/	.	.	24e-\	.	.	.	.	.	.	.	.	.	.	.	.	.	.	.	.	.
24BBB-/	.	.	24f#\	.	.	.	.	.	.	.	.	.	.	.	.	.	.	.	.	.
24BB-/	.	.	24e-\	.	.	.	.	.	.	.	.	.	.	.	.	.	.	.	.	.
24BBB-/	.	.	24f#\	.	.	.	.	.	.	.	.	.	.	.	.	.	.	.	.	.
24BB-/JJ	.	.	24e-\JJ	.	.	.	.	.	.	.	.	.	.	.	.	.	.	.	.	.
24BBB-/LL	.	4a/	24f#\LL	.	.	.	.	.	.	.	.	.	.	.	.	.	.	.	.	.
24BB-/	.	.	24e-\	.	.	.	.	.	.	.	.	.	.	.	.	.	.	.	.	.
24BBB-/	.	.	24f#\	.	.	.	.	.	.	.	.	.	.	.	.	.	.	.	.	.
24BB-/	.	.	24e-\	.	.	.	.	.	.	.	.	.	.	.	.	.	.	.	.	.
24BBB-/	.	.	24f#\	.	.	.	.	.	.	.	.	.	.	.	.	.	.	.	.	.
24BB-/	.	.	24e-\JJ	.	.	.	.	.	.	.	.	.	.	.	.	.	.	.	.	.
24BBB-/	.	4ryy	24f#\LL	.	.	.	.	.	.	.	.	.	.	.	.	.	.	.	.	.
24BB-/	.	.	24g\	.	.	.	.	.	.	.	.	.	.	.	.	.	.	.	.	.
24BBB-/	.	.	24a\	.	.	.	.	.	.	.	.	.	.	.	.	.	.	.	.	.
24BB-/	.	.	24b-\	.	.	.	.	.	.	.	.	.	.	.	.	.	.	.	.	.
24BBB-/	.	.	24cc#X\	.	.	.	.	.	.	.	.	.	.	.	.	.	.	.	.	.
24BB-/JJ	.	.	24dd#X\JJ	.	[	.	.	.	.	.	.	.	.	.	.	.	.	.	.	.
*Xtremolo	*	*	*	*	*	*	*	*	*	*	*	*	*	*	*	*	*	*	*	*
*	*	*	*tuplet	*	*	*	*	*	*	*	*	*	*	*	*	*	*	*	*	*
*	*	*v	*v	*	*	*	*	*	*	*	*	*	*	*	*	*	*	*	*	*
=37||	=37||	=37||	=37||	=37||	=37||	=37||	=37||	=37||	=37||	=37||	=37||	=37||	=37||	=37||	=37||	=37||	=37||	=37||	=37||
*k[f#]	*	*k[f#]	*	*	*k[f#]	*	*	*k[f#]	*	*	*k[f#]	*	*	*k[f#]	*	*	*k[f#]	*	*
!!!OMD: All.o energico.
!	!	!	!	!LO:DY:b:rj	!	!	!	!	!	!	!	!	!	!	!	!	!	!	!
8.EL 8.EE/	.	8.eeL 8.e/	.	ff	1ryy	.	.	1ryy	.	.	1ryy	.	.	1ryy	.	.	1r	.	.
16E/Jk	.	16e/Jk	.	.	.	.	.	.	.	.	.	.	.	.	.	.	.	.	.
4E^\	.	4e^/	.	.	.	.	.	.	.	.	.	.	.	.	.	.	.	.	.
4E\	.	4e/	.	.	.	.	.	.	.	.	.	.	.	.	.	.	.	.	.
16E\LL	.	16e/LL	.	.	.	.	.	.	.	.	.	.	.	.	.	.	.	.	.
16D#X\	.	16d#X/	.	.	.	.	.	.	.	.	.	.	.	.	.	.	.	.	.
16E\	.	16e/	.	.	.	.	.	.	.	.	.	.	.	.	.	.	.	.	.
16F#\JJ	.	16f#/JJ	.	.	.	.	.	.	.	.	.	.	.	.	.	.	.	.	.
=38	=38	=38	=38	=38	=38	=38	=38	=38	=38	=38	=38	=38	=38	=38	=38	=38	=38	=38	=38
4.G^\	.	4.g^/	.	.	1ryy	.	.	1ryy	.	.	1ryy	.	.	1ryy	.	.	1r	.	.
16F#\LL	.	16f#/LL	.	.	.	.	.	.	.	.	.	.	.	.	.	.	.	.	.
16E\JJ	.	16e/JJ	.	.	.	.	.	.	.	.	.	.	.	.	.	.	.	.	.
4.A^\	.	4.a^/	.	.	.	.	.	.	.	.	.	.	.	.	.	.	.	.	.
16G\LL	.	16g/LL	.	.	.	.	.	.	.	.	.	.	.	.	.	.	.	.	.
16F#\JJ	.	16f#/JJ	.	.	.	.	.	.	.	.	.	.	.	.	.	.	.	.	.
!!LO:LB:g=original
=39	=39	=39	=39	=39	=39	=39	=39	=39	=39	=39	=39	=39	=39	=39	=39	=39	=39	=39	=39
!LO:TX:a:t=P:problem:w źródle cienka kreska nad nutą	!	!	!	!	!	!	!	!	!	!	!	!	!	!	!	!	!	!	!
4.B\	.	4.b/	.	sf	1ryy	.	.	1ryy	.	.	1ryy	.	.	1ryy	.	.	1ryy	.	.
16A#X\LL	.	16a#X/LL	.	.	.	.	.	.	.	.	.	.	.	.	.	.	.	.	.
16A#\JJ	.	16a#/JJ	.	.	.	.	.	.	.	.	.	.	.	.	.	.	.	.	.
16An\LL	.	16an/LL	.	.	.	.	.	.	.	.	.	.	.	.	.	.	.	.	.
16A\	.	16a/	.	.	.	.	.	.	.	.	.	.	.	.	.	.	.	.	.
16G\	.	16g/	.	.	.	.	.	.	.	.	.	.	.	.	.	.	.	.	.
16G\JJ	.	16g/JJ	.	.	.	.	.	.	.	.	.	.	.	.	.	.	.	.	.
16F#\LL	.	16f#/LL	.	.	.	.	.	.	.	.	.	.	.	.	.	.	.	.	.
16F#\	.	16f#/	.	.	.	.	.	.	.	.	.	.	.	.	.	.	.	.	.
16E\	.	16e/	.	.	.	.	.	.	.	.	.	.	.	.	.	.	.	.	.
16E\JJ	.	16e/JJ	.	.	.	.	.	.	.	.	.	.	.	.	.	.	.	.	.
=40	=40	=40	=40	=40	=40	=40	=40	=40	=40	=40	=40	=40	=40	=40	=40	=40	=40	=40	=40
16D#X\LL	.	16d#X/LL	.	.	1ryy	.	.	1ryy	.	.	1ryy	.	.	1ryy	.	.	1ryy	.	.
16D#\	.	16d#/	.	.	.	.	.	.	.	.	.	.	.	.	.	.	.	.	.
16E\	.	16e/	.	.	.	.	.	.	.	.	.	.	.	.	.	.	.	.	.
16E\JJ	.	16e/JJ	.	.	.	.	.	.	.	.	.	.	.	.	.	.	.	.	.
!	!	!	!	!LO:DY:b:rj	!	!	!	!	!	!	!	!	!	!	!	!	!	!	!
2C\	.	2c^/	.	sf	.	.	.	.	.	.	.	.	.	.	.	.	.	.	.
4BB/	.	4B/	.	.	.	.	.	.	.	.	.	.	.	.	.	.	.	.	.
=41||	=41||	=41||	=41||	=41||	=41||	=41||	=41||	=41||	=41||	=41||	=41||	=41||	=41||	=41||	=41||	=41||	=41||	=41||	=41||
!	!	!	!	!	!	!	!	!	!	!	!	!	!	!LO:TX:a:Bi:t=CHÓR MYŚLIWCÓW	!	!	!	!	!
4.E 4.EE/	.	8e/L	.	f	4r	.	.	4r	.	.	4r	.	.	4r	.	.	1ryy	.	.
.	.	16eeL 16e/	.	.	.	.	.	.	.	.	.	.	.	.	.	.	.	.	.
.	.	16eeJJ 16e/	.	.	.	.	.	.	.	.	.	.	.	.	.	.	.	.	.
.	.	4ee 4e/	.	.	8r	.	.	8r	.	.	8r	.	.	8r	.	.	.	.	.
!	!	!	!	!	!	!	!LO:DY:a:rj	!	!	!LO:DY:a:rj	!	!	!LO:DY:a:rj	!	!	!LO:DY:a:rj	!	!	!
16E\LL	.	.	.	.	16E\	Zbieg	f	16E\	Zbieg	f	16E/	Zbieg	f	16E/	Zbieg	f	.	.	.
16E\JJ	.	.	.	.	16E\	le-	.	16E\	le-	.	16E/	le-	.	16E/	le-	.	.	.	.
4.E\	.	8r	.	.	4.E\	-chi-	.	4.E\	-chi-	.	4.E/	-chi-	.	4.E/	-chi-	.	.	.	.
.	.	16eeLL 16e/	.	.	.	.	.	.	.	.	.	.	.	.	.	.	.	.	.
.	.	16eeJJ 16e/	.	.	.	.	.	.	.	.	.	.	.	.	.	.	.	.	.
.	.	4ee 4e/	.	.	.	.	.	.	.	.	.	.	.	.	.	.	.	.	.
16E'\LL	.	.	.	.	16E\	-cki	.	16E\	-cki	.	16E/	-cki	.	16E/	-cki	.	.	.	.
16F#'\JJ	.	.	.	.	16F#\	prze-	.	16F#\	prze-	.	16F#/	prze-	.	16F#/	prze-	.	.	.	.
=42	=42	=42	=42	=42	=42	=42	=42	=42	=42	=42	=42	=42	=42	=42	=42	=42	=42	=42	=42
4.G\	.	8r	.	.	4.G^>\	-klę-	.	4.G^>\	-klę-	.	4.G^>/	-klę-	.	4.G^>/	-klę-	.	1ryy	.	.
.	.	16eeLL 16e/	.	.	.	.	.	.	.	.	.	.	.	.	.	.	.	.	.
.	.	16eeJJ 16e/	.	.	.	.	.	.	.	.	.	.	.	.	.	.	.	.	.
.	.	4ee 4e/	.	.	.	.	.	.	.	.	.	.	.	.	.	.	.	.	.
16F#\LL	.	.	.	.	16F#\	-ty	.	16F#\	-ty	.	16F#/	-ty	.	16F#/	-ty	.	.	.	.
16E\JJ	.	.	.	.	16E\	niech	.	16E\	niech	.	16E/	niech	.	16E/	niech	.	.	.	.
4.A\	.	8eeL 8e/	.	.	4.A^>\	zgi-	.	4.A^>\	zgi-	.	4.A^>/	zgi-	.	4.A^>/	zgi-	.	.	.	.
.	.	16eeL 16e/	.	.	.	.	.	.	.	.	.	.	.	.	.	.	.	.	.
.	.	16eeJJ 16e/	.	.	.	.	.	.	.	.	.	.	.	.	.	.	.	.	.
.	.	4ee 4e/	.	.	.	.	.	.	.	.	.	.	.	.	.	.	.	.	.
16G'\LL	.	.	.	.	16G\	-nie	.	16G\	-nie	.	16G/	-nie	.	16G/	-nie	.	.	.	.
16F#'\JJ	.	.	.	.	16F#\	niech	.	16F#\	niech	.	16F#/	niech	.	16F#/	niech	.	.	.	.
!!LO:PB:g=original
=43	=43	=43	=43	=43	=43	=43	=43	=43	=43	=43	=43	=43	=43	=43	=43	=43	=43	=43	=43
4.B 4.BB\	.	4.dd#X 4.b 4.f#\	.	.	2B^<\	zgi-	.	2B^<\	zgi-	.	2B^>\	zgi-	.	2B^>\	zgi-	.	1ryy	.	.
16B\LL	2	16b\LL	2	.	.	.	.	.	.	.	.	.	.	.	.	.	.	.	.
16B\JJ	1	16b\JJ	1	.	.	.	.	.	.	.	.	.	.	.	.	.	.	.	.
4BB/	5	4bb\	5	.	4BB/	-nie	.	4BB/	-nie	.	4B\	-nie	.	4B\	-nie	.	.	.	.
8r	.	8r	.	.	8.r	.	.	8.r	.	.	8.r	.	.	8.r	.	.	.	.	.
16BBLL 16BBB/	.	16eeLL 16b 16g 16e/	.	.	.	.	.	.	.	.	.	.	.	.	.	.	.	.	.
16BBJJ 16BBB/	.	16eeJJ 16b 16g 16e/	.	.	16BB/	niech	.	16Gn\	niech	.	16B\	niech	.	16e\	niech	.	.	.	.
=44	=44	=44	=44	=44	=44	=44	=44	=44	=44	=44	=44	=44	=44	=44	=44	=44	=44	=44	=44
2BB 2BBB/	.	2dd#X 2b 2f# 2d#X/	.	.	2BB/	zgi-	.	2F#\	zgi-	.	2B\	zgi-	.	2d#X\	zgi-	.	1ryy	.	.
16r	.	16r	.	.	4BB/	-nie	.	4B\	-nie	.	4B\	-nie	.	4B\	-nie	.	.	.	.
16B\LL	.	16bb\LL	.	<	.	.	.	.	.	.	.	.	.	.	.	.	.	.	.
16c\	.	16ccc\	.	.	.	.	.	.	.	.	.	.	.	.	.	.	.	.	.
16B\JJ	.	16bb\JJ	.	.	.	.	.	.	.	.	.	.	.	.	.	.	.	.	.
16A#X\LL	.	16aa#X\LL	.	.	4r	.	.	4r	.	.	4r	.	.	4r	.	.	.	.	.
16B\	.	16bb\	.	.	.	.	.	.	.	.	.	.	.	.	.	.	.	.	.
16d#X\	.	16ddd#X\	.	.	.	.	.	.	.	.	.	.	.	.	.	.	.	.	.
16e\JJ	.	16eee\JJ	.	[	.	.	.	.	.	.	.	.	.	.	.	.	.	.	.
=45	=45	=45	=45	=45	=45	=45	=45	=45	=45	=45	=45	=45	=45	=45	=45	=45	=45	=45	=45
4f#\	.	4fff#\	.	.	4r	.	.	4r	.	.	4r	.	.	4r	.	.	1ryy	.	.
8r	.	4r	.	.	8r	.	.	8r	.	.	8r	.	.	8r	.	.	.	.	.
!	!	!	!	!	!	!	!LO:DY:a:rj	!	!	!LO:DY:a:rj	!	!	!LO:DY:a:rj	!	!	!LO:DY:a:rj	!	!	!
16F#\LL	.	.	.	.	16F#\	syn	f	16F#\	syn	f	16F#/	syn	f	16F#/	syn	f	.	.	.
16G\JJ	.	.	.	.	16G\	sza-	.	16G\	sza-	.	16G/	sza-	.	16G/	sza-	.	.	.	.
4.A^\	.	16r	.	.	4.A\	-tańs-	.	4.A\	-tańs-	.	4.A/	-tańs-	.	4.A/	-tańs-	.	.	.	.
.	.	16a\LL	.	.	.	.	.	.	.	.	.	.	.	.	.	.	.	.	.
.	.	16aa 16ff#\	.	.	.	.	.	.	.	.	.	.	.	.	.	.	.	.	.
.	.	16a\JJ	.	.	.	.	.	.	.	.	.	.	.	.	.	.	.	.	.
.	.	8aa 8ff#\	.	.	.	.	.	.	.	.	.	.	.	.	.	.	.	.	.
16A\LL	.	8r	.	.	16A\	-ki	.	16A\	-ki	.	16A/	-ki	.	16A/	-ki	.	.	.	.
16B\JJ	.	.	.	.	16B/	ze	.	16B/	ze	.	16B/	ze	.	16B/	ze	.	.	.	.
=46	=46	=46	=46	=46	=46	=46	=46	=46	=46	=46	=46	=46	=46	=46	=46	=46	=46	=46	=46
4.c\	.	16r	.	.	4.c^<\	zgra-	.	4.c^<\	zgra-	.	4.c^>\	zgra-	.	4.c^>\	zgra-	.	1ryy	.	.
.	.	16a\LL	.	.	.	.	.	.	.	.	.	.	.	.	.	.	.	.	.
.	.	16aa 16ff#\	.	.	.	.	.	.	.	.	.	.	.	.	.	.	.	.	.
.	.	16a\JJ	.	.	.	.	.	.	.	.	.	.	.	.	.	.	.	.	.
.	.	8aaL 8ff#\	.	.	.	.	.	.	.	.	.	.	.	.	.	.	.	.	.
16A\LL	.	16ff#\L	.	.	(16A\LL	-ją	.	(16A\LL	-ją	.	(16A/LL	-ją	.	(16A/LL	-ją	.	.	.	.
16G\JJ	.	16ee\JJ	.	.	16G\JJ)	.	.	16G\JJ)	.	.	16G/JJ)	.	.	16G/JJ)	.	.	.	.	.
4.F#\	.	16dd\LL	.	<	4.F#\	sług	.	4.F#\	sług	.	4.F#/	sług	.	4.F#/	sług	.	.	.	.
.	.	16ee\	.	.	.	.	.	.	.	.	.	.	.	.	.	.	.	.	.
.	.	16ff#\	.	.	.	.	.	.	.	.	.	.	.	.	.	.	.	.	.
.	.	16gg\JJ	.	.	.	.	.	.	.	.	.	.	.	.	.	.	.	.	.
.	.	16aa\LL	.	.	.	.	.	.	.	.	.	.	.	.	.	.	.	.	.
.	.	16bb\	.	.	.	.	.	.	.	.	.	.	.	.	.	.	.	.	.
16F#\LL	.	16ccc\	.	.	16F#\	zgra-	.	16F#\	zgra-	.	16F#/	zgra-	.	16F#/	zgra-	.	.	.	.
16E\JJ	.	16ccc#X\JJ	.	[	16E\	-ją	.	16E\	-ją	.	16E/	-ją	.	16E/	-ją	.	.	.	.
!!LO:LB:g=original
=47	=47	=47	=47	=47	=47	=47	=47	=47	=47	=47	=47	=47	=47	=47	=47	=47	=47	=47	=47
!	!	!LO:TX:t=P:problem:mixed beam	!	!	!	!	!	!	!	!	!LO:TX:t=P:problem:w źródle półnuta bez caudy	!	!	!LO:TX:t=P:problem:w źródle półnuta bez caudy	!	!	!	!	!
2D\	.	8ddd\L	.	.	2D/	sług	.	2D\	sług	.	2D/	sług	.	2D/	sług	.	1ryy	.	.
.	.	16d/L	.	.	.	.	.	.	.	.	.	.	.	.	.	.	.	.	.
.	.	16d/JJ	.	.	.	.	.	.	.	.	.	.	.	.	.	.	.	.	.
.	.	8dd\L	.	.	.	.	.	.	.	.	.	.	.	.	.	.	.	.	.
.	.	16dd\L	.	.	.	.	.	.	.	.	.	.	.	.	.	.	.	.	.
.	.	16dd\JJ	.	.	.	.	.	.	.	.	.	.	.	.	.	.	.	.	.
8DD/	.	8ddd\	.	.	4r	.	.	4r	.	.	4r	.	.	4r	.	.	.	.	.
8r	.	8r	.	.	.	.	.	.	.	.	.	.	.	.	.	.	.	.	.
8r	.	8r	.	.	8r	.	.	8r	.	.	8r	.	.	8r	.	.	.	.	.
!	!	!	!	!LO:DY:b:rj	!	!	!LO:DY:a:rj	!	!	!LO:DY:a:rj	!	!	!LO:DY:a:rj	!	!	!LO:DY:a:rj	!	!	!
16dLL 16D\	.	16ff#LL 16cc 16a\	.	f	16B\	nie-	f	16B\	nie-	f	16cn\	nie-	f	16f#\	nie-	f	.	.	.
16dJJ 16D\	.	16ff#JJ 16cc 16a\	.	.	16B\	-chaj	.	16B\	-chaj	.	16c\	-chaj	.	16f#\	-chaj	.	.	.	.
=48	=48	=48	=48	=48	=48	=48	=48	=48	=48	=48	=48	=48	=48	=48	=48	=48	=48	=48	=48
*^	*	*	*	*	*	*	*	*	*	*	*	*	*	*	*	*	*	*	*
2G 2GG/	2ryy	.	8gg 8b 8g\	.	.	2G\	zgi-	.	2G\	zgi-	.	2B\	zgi-	.	2g\	zgi-	.	1ryy	.	.
.	.	.	16aa\LL	.	.	.	.	.	.	.	.	.	.	.	.	.	.	.	.	.
.	.	.	16gg\JJ	.	<	.	.	.	.	.	.	.	.	.	.	.	.	.	.	.
.	.	.	16ff#\LL	.	.	.	.	.	.	.	.	.	.	.	.	.	.	.	.	.
.	.	.	16gg\	.	.	.	.	.	.	.	.	.	.	.	.	.	.	.	.	.
.	.	.	16bb\	.	.	.	.	.	.	.	.	.	.	.	.	.	.	.	.	.
.	.	.	16ddd\JJ	.	.	.	.	.	.	.	.	.	.	.	.	.	.	.	.	.
4GG/	4GGG\	.	4ggg\	.	[	4GG/	-nie!	.	4GG/	-nie!	.	4G/	-nie!	.	4G/	-nie!	.	.	.	.
4r	4ryy	.	4r	.	.	8.r	.	.	8.r	.	.	4r	.	.	4r	.	.	.	.	.
.	.	.	.	.	.	16B\	niech	.	16B\	niech	.	.	.	.	.	.	.	.	.	.
*v	*v	*	*	*	*	*	*	*	*	*	*	*	*	*	*	*	*	*	*	*
=49	=49	=49	=49	=49	=49	=49	=49	=49	=49	=49	=49	=49	=49	=49	=49	=49	=49	=49	=49
4.B\	.	16r	.	f	4.B\	po-	.	4.B\	po-	.	1r	.	.	1r	.	.	1ryy	.	.
.	.	16b\LL	3	.	.	.	.	.	.	.	.	.	.	.	.	.	.	.	.
.	.	16b\	2	.	.	.	.	.	.	.	.	.	.	.	.	.	.	.	.
.	.	16b\JJ	1	.	.	.	.	.	.	.	.	.	.	.	.	.	.	.	.
.	.	8bb'\	.	.	.	.	.	.	.	.	.	.	.	.	.	.	.	.	.
16A\LL	.	8r	.	.	(16A\LL	-dła	.	(16A\LL	-dła	.	.	.	.	.	.	.	.	.	.
16G\JJ	.	.	.	.	16G\JJ)	.	.	16G\JJ)	.	.	.	.	.	.	.	.	.	.	.
4F#\	.	16r	.	.	4F#\	krew	.	4F#\	krew	.	.	.	.	.	.	.	.	.	.
.	.	16b\LL	.	<	.	.	.	.	.	.	.	.	.	.	.	.	.	.	.
.	.	16b\	.	.	.	.	.	.	.	.	.	.	.	.	.	.	.	.	.
.	.	16b\JJ	.	.	.	.	.	.	.	.	.	.	.	.	.	.	.	.	.
8A\L	.	8bb'\	.	.	8A\	na	.	8A\	na	.	.	.	.	.	.	.	.	.	.
16G\L	.	8r	.	.	16G\	nie-	.	16G\	nie-	.	.	.	.	.	.	.	.	.	.
16F#\JJ	.	.	.	[	16F#\	-go	.	16F#\	-go	.	.	.	.	.	.	.	.	.	.
=50	=50	=50	=50	=50	=50	=50	=50	=50	=50	=50	=50	=50	=50	=50	=50	=50	=50	=50	=50
4E\	.	16r	.	.	4E\	spły-	.	4E\	spły-	.	1r	.	.	1r	.	.	1ryy	.	.
.	.	16b\LL	.	.	.	.	.	.	.	.	.	.	.	.	.	.	.	.	.
.	.	16b\	.	.	.	.	.	.	.	.	.	.	.	.	.	.	.	.	.
.	.	16b\JJ	.	.	.	.	.	.	.	.	.	.	.	.	.	.	.	.	.
8G\L	.	8bb'\	.	.	8G\	-nie	.	8G\	-nie	.	.	.	.	.	.	.	.	.	.
16F#\L	.	8r	.	.	16F#\	je-	.	16F#\	je-	.	.	.	.	.	.	.	.	.	.
16E\JJ	.	.	.	.	16E\	-go	.	16E\	-go	.	.	.	.	.	.	.	.	.	.
!	!	!	!	!	!LO:SIC:v:s=4D#^\	!	!	!	!	!	!	!	!	!	!	!	!	!	!
4D#X\	.	16r	.	.	4D^\	pierś	.	4D#X^\	pierś	.	.	.	.	.	.	.	.	.	.
.	.	16b\LL	.	.	.	.	.	.	.	.	.	.	.	.	.	.	.	.	.
.	.	16b\	.	.	.	.	.	.	.	.	.	.	.	.	.	.	.	.	.
.	.	16b\JJ	.	.	.	.	.	.	.	.	.	.	.	.	.	.	.	.	.
8E\L	.	8bb'\	.	<	8E\	niech	.	8E\	niech	.	.	.	.	.	.	.	.	.	.
16Dn\L	.	8r	.	[ >	16D/	je-	.	16Dn/	je-	.	.	.	.	.	.	.	.	.	.
16C\JJ	.	.	.	]]	16C/	-go	.	16C/	-go	.	.	.	.	.	.	.	.	.	.
!!LO:LB:g=original
=51	=51	=51	=51	=51	=51	=51	=51	=51	=51	=51	=51	=51	=51	=51	=51	=51	=51	=51	=51
2BB^/	.	8r	.	.	4.BB/	pierś	.	4.BB/	pierś	.	4r	.	.	4r	.	.	1ryy	.	.
.	.	16B/LL	.	.	.	.	.	.	.	.	.	.	.	.	.	.	.	.	.
.	.	16c#X/JJ	.	.	.	.	.	.	.	.	.	.	.	.	.	.	.	.	.
.	.	16d#X/LL	.	.	.	.	.	.	.	.	8r	.	.	8r	.	.	.	.	.
.	.	16e/	.	.	.	.	.	.	.	.	.	.	.	.	.	.	.	.	.
.	.	16f#/	.	.	16F#\	je-	.	16A#X\	je-	.	16e 16c\	je-	.	16f#\	je-	.	.	.	.
.	.	16g#X/JJ	.	<	16F#\	-go	.	16A#\	-go	.	16e 16c\	-go	.	16f#\	-go	.	.	.	.
4.F# 4.FF#/	.	16a#X\LL	.	.	4BB/	pierś	.	4B\	pierś	.	4d#X 4B\	pierś	.	4f#\	pierś	.	.	.	.
.	.	16b\	.	.	.	.	.	.	.	.	.	.	.	.	.	.	.	.	.
.	.	16cc#X\	.	.	.	.	.	.	.	.	.	.	.	.	.	.	.	.	.
.	.	16dd#X\JJ	.	.	.	.	.	.	.	.	.	.	.	.	.	.	.	.	.
.	.	16ee\LL	.	.	8BB/	ro-	.	8B\	ro-	.	8d# 8B\	ro-	.	8f#\	ro-	.	.	.	.
.	.	16ff#\	.	.	.	.	.	.	.	.	.	.	.	.	.	.	.	.	.
16F#LL 16E 16C#X 16FF#/	.	16gg#X\	.	[	16F#\	-ze-	.	16A#\	-ze-	.	16e 16c\	-ze-	.	16f#\	-ze-	.	.	.	.
16F#JJ 16E 16C# 16FF#/	.	16aa#X\JJ	.	.	16F#\	-drze	.	16A#\	-drze	.	16e 16c\	-drze	.	16f#\	-drze	.	.	.	.
=52	=52	=52	=52	=52	=52	=52	=52	=52	=52	=52	=52	=52	=52	=52	=52	=52	=52	=52	=52
!	!	!LO:TX:t=P:problem:mixed beam	!	!	!	!	!	!	!	!	!	!	!	!	!	!	!	!	!
8.BBL 8.BBB/	.	8.bb\L	.	.	2BB/	kruk!	.	2B\	kruk!	.	2d#X 2B\	kruk!	.	2d#X\	kruk!	.	1ryy	.	.
16BBJk 16BBB/	.	16B/Jk	.	.	.	.	.	.	.	.	.	.	.	.	.	.	.	.	.
4BB 4BBB/	.	4B/	.	.	.	.	.	.	.	.	.	.	.	.	.	.	.	.	.
8BBL 8BBB\	.	8B/L	.	.	2r	.	.	2r	.	.	2r	.	.	2r	.	.	.	.	.
8BJ 8BB\	.	8b/J	.	.	.	.	.	.	.	.	.	.	.	.	.	.	.	.	.
8BL 8BB^\	.	8b^/L	.	.	.	.	.	.	.	.	.	.	.	.	.	.	.	.	.
(16A\L	.	(16a/L	.	.	.	.	.	.	.	.	.	.	.	.	.	.	.	.	.
16G\JJ)	.	16g/JJ	.	.	.	.	.	.	.	.	.	.	.	.	.	.	.	.	.
=53	=53	=53	=53	=53	=53	=53	=53	=53	=53	=53	=53	=53	=53	=53	=53	=53	=53	=53	=53
8F#\L	.	8f#/L)	.	.	2r	.	.	1r	.	.	1r	.	.	1r	.	.	1ryy	.	.
8A\J	.	8a/J	.	.	.	.	.	.	.	.	.	.	.	.	.	.	.	.	.
8A\L	.	8a/L	.	.	.	.	.	.	.	.	.	.	.	.	.	.	.	.	.
16G\L	.	16g/L	.	.	.	.	.	.	.	.	.	.	.	.	.	.	.	.	.
16F#\JJ	.	16f#/JJ	.	.	.	.	.	.	.	.	.	.	.	.	.	.	.	.	.
8E\L	.	8e/L	.	.	4r	.	.	.	.	.	.	.	.	.	.	.	.	.	.
8G\J	.	8g/J	.	.	.	.	.	.	.	.	.	.	.	.	.	.	.	.	.
!	!	!	!	!	!	!	!LO:DY:a:rj	!	!	!	!	!	!	!	!	!	!	!	!
8G\L	.	8g/L	.	.	8A\	niech	f	.	.	.	.	.	.	.	.	.	.	.	.
16F#\L	.	16f#/L	.	.	16F#\	je-	.	.	.	.	.	.	.	.	.	.	.	.	.
16E\JJ	.	16e/JJ	.	.	16E\	-go	.	.	.	.	.	.	.	.	.	.	.	.	.
!!LO:PB:g=original
=54	=54	=54	=54	=54	=54	=54	=54	=54	=54	=54	=54	=54	=54	=54	=54	=54	=54	=54	=54
*tremolo	*	*	*	*	*	*	*	*	*	*	*	*	*	*	*	*	*	*	*
16CC/LL	.	4.c/	.	f	4.C/	pierś	.	4r	.	.	4r	.	.	4r	.	.	1ryy	.	.
16C/	.	.	.	.	.	.	.	.	.	.	.	.	.	.	.	.	.	.	.
16CC/	.	.	.	.	.	.	.	.	.	.	.	.	.	.	.	.	.	.	.
16C/	.	.	.	.	.	.	.	.	.	.	.	.	.	.	.	.	.	.	.
16CC/	.	.	.	.	.	.	.	8r	.	.	8r	.	.	8r	.	.	.	.	.
16C/	.	.	.	.	.	.	.	.	.	.	.	.	.	.	.	.	.	.	.
!	!	!	!	!	!	!	!LO:DY:a:rj	!	!	!LO:DY:a:rj	!	!	!LO:DY:a:rj	!	!	!LO:DY:a:rj	!	!	!
16CC/	.	16eeLL 16cc 16g 16e/	.	.	16C/	je-	mf	16G\	je-	mf	16c\	je-	mf	16e\	je-	mf	.	.	.
16C/JJ	.	16eeJJ 16cc 16g 16e/	.	.	16C/	-go	.	16G\	-go	.	16c\	-go	.	16e\	-go	.	.	.	.
!	!	!	!	!	!	!	!	!	!	!	!	!	!	!LO:SIC:v:s=4fn^>\	!	!	!	!	!
16CC/LL	.	4.ffn 4.cc 4.a 4.fn/	.	.	4.C^>/	pierś	.	4.A^>\	pierś	.	4.c^>\	pierś	.	4.f#^>\	pierś	.	.	.	.
16C/	.	.	.	.	.	.	.	.	.	.	.	.	.	.	.	.	.	.	.
16CC/	.	.	.	.	.	.	.	.	.	.	.	.	.	.	.	.	.	.	.
16C/	.	.	.	.	.	.	.	.	.	.	.	.	.	.	.	.	.	.	.
16CC/	.	.	.	.	.	.	.	.	.	.	.	.	.	.	.	.	.	.	.
16C/	.	.	.	.	.	.	.	.	.	.	.	.	.	.	.	.	.	.	.
16CC/	.	16eeLL 16cc 16g 16e/	.	.	16C/	ze-	.	16G\	ze-	.	16c\	ze-	.	16e\	ze-	.	.	.	.
16C/JJ	.	16eeJJ 16cc 16g 16e/	.	.	16C/	-drze	.	16G\	-drze	.	16c\	-drze	.	16e\	-drze	.	.	.	.
=55	=55	=55	=55	=55	=55	=55	=55	=55	=55	=55	=55	=55	=55	=55	=55	=55	=55	=55	=55
16CC/LL	.	4ffn 4cc 4a 4fn/	.	.	4C/	kruk	.	4A\	kruk	.	4c\	kruk	.	4fn\	kruk	.	1ryy	.	.
16C/	.	.	.	.	.	.	.	.	.	.	.	.	.	.	.	.	.	.	.
16CC/	.	.	.	.	.	.	.	.	.	.	.	.	.	.	.	.	.	.	.
16C/	.	.	.	.	.	.	.	.	.	.	.	.	.	.	.	.	.	.	.
16CC/	.	8ee 8cc 8g 8e/	.	.	8C/	niech	.	8G\	niech	.	8c\	niech	.	8e\	niech	.	.	.	.
16C/	.	.	.	.	.	.	.	.	.	.	.	.	.	.	.	.	.	.	.
16CC/	.	16eeLL 16b-X 16g 16e/	.	.	16C/	je-	.	16G\	je-	.	16B-X\	je-	.	16e\	je-	.	.	.	.
16C/JJ	.	16eeJJ 16b- 16g 16e/	.	.	16C/	-go	.	16G\	-go	.	16B-\	-go	.	16e\	-go	.	.	.	.
16BBB/LL	.	4.ee 4.bn 4.g 4.e/	.	.	4.BB/	pierś	.	4.G\	pierś	.	4.Bn\	pierś	.	4.e\	pierś	.	.	.	.
16BB/	.	.	.	.	.	.	.	.	.	.	.	.	.	.	.	.	.	.	.
16BBB/	.	.	.	.	.	.	.	.	.	.	.	.	.	.	.	.	.	.	.
16BB/	.	.	.	.	.	.	.	.	.	.	.	.	.	.	.	.	.	.	.
16BBB/	.	.	.	.	.	.	.	.	.	.	.	.	.	.	.	.	.	.	.
16BB/	.	.	.	.	.	.	.	.	.	.	.	.	.	.	.	.	.	.	.
16BBB/	.	16dd#XLL 16b 16f#X/	.	.	16BB/	ze-	.	16F#\	ze-	.	16B\	ze-	.	16d#X\	ze-	.	.	.	.
16BB/JJ	.	16dd#JJ 16b 16f#/	.	.	16BB/	-drze-	.	16F#\	-drze-	.	16A/	-drze-	.	16d#\	-drze-	.	.	.	.
*Xtremolo	*	*	*	*	*	*	*	*	*	*	*	*	*	*	*	*	*	*	*
=56	=56	=56	=56	=56	=56	=56	=56	=56	=56	=56	=56	=56	=56	=56	=56	=56	=56	=56	=56
2E 2EE/	.	8ee 8g 8e/	.	.	2E\	-kruk!	.	2E\	-kruk!	.	2G/	-kruk!	.	2e\	-kruk!	.	1ryy	.	.
.	.	(16e/LL	.	.	.	.	.	.	.	.	.	.	.	.	.	.	.	.	.
.	.	16d#X/JJ)	.	.	.	.	.	.	.	.	.	.	.	.	.	.	.	.	.
.	.	16e\LL	.	.	.	.	.	.	.	.	.	.	.	.	.	.	.	.	.
.	.	16dd#X\	.	.	.	.	.	.	.	.	.	.	.	.	.	.	.	.	.
.	.	16ee\	.	.	.	.	.	.	.	.	.	.	.	.	.	.	.	.	.
.	.	16dd#\JJ	.	.	.	.	.	.	.	.	.	.	.	.	.	.	.	.	.
8EL 8EE\	.	8ee\L	.	.	2r	.	.	2r	.	.	2r	.	.	2r	.	.	.	.	.
8d\J	.	8ddn'>\J	.	.	.	.	.	.	.	.	.	.	.	.	.	.	.	.	.
8d^\L	.	8dd\L	.	.	.	.	.	.	.	.	.	.	.	.	.	.	.	.	.
16c^\L	.	16cc\L	.	.	.	.	.	.	.	.	.	.	.	.	.	.	.	.	.
16B\JJ	.	16b\JJ	.	.	.	.	.	.	.	.	.	.	.	.	.	.	.	.	.
!!LO:LB:g=original
=57	=57	=57	=57	=57	=57	=57	=57	=57	=57	=57	=57	=57	=57	=57	=57	=57	=57	=57	=57
4.A\	.	16a\LL	.	.	4r	.	.	4r	.	.	4r	.	.	4r	.	.	1ryy	.	.
.	.	16b\	.	.	.	.	.	.	.	.	.	.	.	.	.	.	.	.	.
.	.	16cc\	.	.	.	.	.	.	.	.	.	.	.	.	.	.	.	.	.
.	.	16dd\JJ	.	.	.	.	.	.	.	.	.	.	.	.	.	.	.	.	.
.	.	16ee\LL	.	.	8r	.	.	8r	.	.	8r	.	.	8r	.	.	.	.	.
.	.	16ff#X\	.	.	.	.	.	.	.	.	.	.	.	.	.	.	.	.	.
!	!	!	!	!	!	!	!LO:DY:a:rj	!	!	!LO:DY:a:rj	!	!	!LO:DY:a:rj	!	!	!LO:DY:a:rj	!	!	!
16eLL 16c 16A 16E\	.	16gg#X\	.	.	16A\	nie-	f	16A\	nie-	f	16c\	nie-	f	16e\	nie-	f	.	.	.
16eJJ 16c 16A 16E\	.	16aa\JJ	.	.	16A\	-chaj	.	16A\	-chaj	.	16c\	-chaj	.	16e\	-chaj	.	.	.	.
4.e 4.B 4.G#X 4.E\	.	16ee\LL	.	.	2E\	zgi-	.	2G#X\	zgi-	.	2B\	zgi-	.	2e\	zgi-	.	.	.	.
.	.	16ff#\	.	.	.	.	.	.	.	.	.	.	.	.	.	.	.	.	.
.	.	16gg#\	.	.	.	.	.	.	.	.	.	.	.	.	.	.	.	.	.
.	.	16aa\JJ	.	.	.	.	.	.	.	.	.	.	.	.	.	.	.	.	.
.	.	16bb\LL	.	.	.	.	.	.	.	.	.	.	.	.	.	.	.	.	.
.	.	16ccc\	.	.	.	.	.	.	.	.	.	.	.	.	.	.	.	.	.
16eLL 16B 16G# 16E\	.	16ddd\	.	.	.	.	.	.	.	.	.	.	.	.	.	.	.	.	.
16eJJ 16B 16G# 16E\	.	16eee\JJ	.	.	.	.	.	.	.	.	.	.	.	.	.	.	.	.	.
=58	=58	=58	=58	=58	=58	=58	=58	=58	=58	=58	=58	=58	=58	=58	=58	=58	=58	=58	=58
4.e 4.A\	.	16ccc\LL	.	.	4AA/	-nie!	.	4A\	-nie!	.	4c\	-nie!	.	4e\	-nie!	.	1ryy	.	.
.	.	16eee\	.	.	.	.	.	.	.	.	.	.	.	.	.	.	.	.	.
.	.	16ccc\	.	.	.	.	.	.	.	.	.	.	.	.	.	.	.	.	.
.	.	16aa\JJ	.	.	.	.	.	.	.	.	.	.	.	.	.	.	.	.	.
.	.	8ee\L	.	.	4r	.	.	4r	.	.	4r	.	.	4r	.	.	.	.	.
16c\LL	.	16cc\L	.	.	.	.	.	.	.	.	.	.	.	.	.	.	.	.	.
16B\JJ	.	16b\JJ	.	.	.	.	.	.	.	.	.	.	.	.	.	.	.	.	.
8A'\L	.	8a'/L	.	.	4r	.	.	4r	.	.	4r	.	.	4r	.	.	.	.	.
8E'\J	.	8e'/J	.	.	.	.	.	.	.	.	.	.	.	.	.	.	.	.	.
8E'\L	.	8e'/L	.	.	8.r	.	.	8.r	.	.	8.r	.	.	8.r	.	.	.	.	.
16C\L	.	16c/L	.	.	.	.	.	.	.	.	.	.	.	.	.	.	.	.	.
16BB\JJ	.	16B/JJ	.	.	16A\	śmierć	.	16A\	śmierć	.	16c\	śmierć	.	16e\	śmierć	.	.	.	.
=59	=59	=59	=59	=59	=59	=59	=59	=59	=59	=59	=59	=59	=59	=59	=59	=59	=59	=59	=59
2AA 2AAA\	.	2fn 2c 2Fn</	.	.	2A\	zdraj-	.	2A\	zdraj-	.	2c\	zdraj-	.	2fn\	zdraj-	.	1ryy	.	.
8BB-XL 8BBB-X\	.	8fL 8d 8B-X 8F</	.	.	4B-X\	-cy!	.	4B-X\	-cy!	.	4d\	-cy!	.	4f\	-cy!	.	.	.	.
8fn\J	.	8ffn/J	.	.	.	.	.	.	.	.	.	.	.	.	.	.	.	.	.
8f^\L	.	8ff^\L	.	.	4r	.	.	4r	.	.	4r	.	.	4r	.	.	.	.	.
(16d\L	.	(16dd\L	.	.	.	.	.	.	.	.	.	.	.	.	.	.	.	.	.
16c\JJ)	.	16cc\JJ)	.	.	.	.	.	.	.	.	.	.	.	.	.	.	.	.	.
!!LO:LB:g=original
=60	=60	=60	=60	=60	=60	=60	=60	=60	=60	=60	=60	=60	=60	=60	=60	=60	=60	=60	=60
8B-X\L	.	8b-X\L	.	.	4r	.	.	4r	.	.	4r	.	.	4r	.	.	1ryy	.	.
(16B-\L	.	(16b-\L	.	.	.	.	.	.	.	.	.	.	.	.	.	.	.	.	.
16A\JJ)	.	16a\JJ)	.	.	.	.	.	.	.	.	.	.	.	.	.	.	.	.	.
8G#X\L	.	8g#X\L	.	.	8r	.	.	8r	.	.	8r	.	.	8r	.	.	.	.	.
!	!	!	!	!	!	!	!LO:DY:a:rj	!	!	!LO:DY:a:rj	!	!	!LO:DY:a:rj	!	!	!LO:DY:a:rj	!	!	!
16Fn\L	.	16dd\L	.	.	16G\	nie-	f	16B-X\	nie-	f	16d\	nie-	f	16fn\	nie-	f	.	.	.
(16G#JJ 16D 16GG#X\	.	16ee\JJ	.	.	16G\	-chaj	.	16B-\	-chaj	.	16d\	-chaj	.	16f\	-chaj	.	.	.	.
4A 4F 4D 4AA\)	.	16ffn\LL	.	.	4.A^<\	zgi-	.	4.A^<\	zgi-	.	4.d^>\	zgi-	.	4.f^>\	zgi-	.	.	.	.
.	.	16ddd\	.	.	.	.	.	.	.	.	.	.	.	.	.	.	.	.	.
.	.	16aa\	.	.	.	.	.	.	.	.	.	.	.	.	.	.	.	.	.
.	.	16ff\JJ	.	.	.	.	.	.	.	.	.	.	.	.	.	.	.	.	.
8AL 8F 8AA\	.	16dd\LL	.	.	.	.	.	.	.	.	.	.	.	.	.	.	.	.	.
.	.	16ddd\	.	.	.	.	.	.	.	.	.	.	.	.	.	.	.	.	.
8AJ 8E 8AA\	.	16ee\	.	.	16AA/	-nie	.	16A\	-nie	.	16d\	-nie	.	16e\	-nie	.	.	.	.
.	.	16ccc#X\JJ	.	.	16AA/	śmierć	.	16G\	śmierć	.	16c#X\	śmierć	.	16e\	śmierć	.	.	.	.
=61	=61	=61	=61	=61	=61	=61	=61	=61	=61	=61	=61	=61	=61	=61	=61	=61	=61	=61	=61
4A 4Fn 4D\	.	4ddd 4dd\	.	.	2D\	zdraj-	.	2Fn\	zdraj-	.	2d\	zdraj-	.	2d\	zdraj-	.	1ryy	.	.
!LO:TX:a:t=P:problem:w źrodle kropka przed nutą	!	!	!	!	!	!	!	!	!	!	!	!	!	!	!	!	!	!	!
8DL 8DD/	.	16fn/LL	.	p	.	.	.	.	.	.	.	.	.	.	.	.	.	.	.
.	.	16dd/	.	.	.	.	.	.	.	.	.	.	.	.	.	.	.	.	.
8AAJ 8AAA/	.	16e/	.	.	.	.	.	.	.	.	.	.	.	.	.	.	.	.	.
.	.	16cc#X/JJ	.	.	.	.	.	.	.	.	.	.	.	.	.	.	.	.	.
4.D 4.DD/	.	4.dd 4.f#X/	.	.	4D\	-cy!	.	4F\	-cy!	.	4d\	-cy!	.	4d\	-cy!	.	.	.	.
.	.	.	.	.	4r	.	.	4r	.	.	4r	.	.	4r	.	.	.	.	.
!	!	!	!	!LO:DY:b:rj	!	!	!	!	!	!	!	!	!	!	!	!	!	!	!
16DLL 16DD/	.	16ddLL 16d/	.	f	.	.	.	.	.	.	.	.	.	.	.	.	.	.	.
16DJJ 16DD/	.	16ddJJ 16d/	.	.	.	.	.	.	.	.	.	.	.	.	.	.	.	.	.
=62	=62	=62	=62	=62	=62	=62	=62	=62	=62	=62	=62	=62	=62	=62	=62	=62	=62	=62	=62
8D 8DD/	.	4dd 4d^/	.	.	8r	.	.	8r	.	.	2r	.	.	2r	.	.	1ryy	.	.
16D\LL	.	.	.	.	16D\	nie-	.	16D\	nie-	.	.	.	.	.	.	.	.	.	.
16E\JJ	.	.	.	.	16E\	-chaj	.	16E\	-chaj	.	.	.	.	.	.	.	.	.	.
8Fn\	.	4r	.	.	8Fn\	zgi-	.	8Fn\	zgi-	.	.	.	.	.	.	.	.	.	.
16G\LL	.	.	.	.	16G\	-nie	.	16G\	-nie	.	.	.	.	.	.	.	.	.	.
16A\JJ	.	.	.	.	16A\	le-	.	16A\	le-	.	.	.	.	.	.	.	.	.	.
!	!	!	!	!	!	!	!	!	!	!	!	!	!LO:DY:a:rj	!	!	!LO:DY:a:rj	!	!	!
4.B-X^\	.	2r	.	.	4.B-X^<\	-chi-	.	4.B-X^<\	-chi-	.	4.B-X\	śmierć	f	4.B-X\	śmierć	f	.	.	.
16B-\LL	.	.	.	.	16B-\	-cki	.	16B-\	-cki	.	8r	.	.	8r	.	.	.	.	.
16B-\JJ	.	.	.	.	16B-\	prze-	.	16B-\	prze-	.	.	.	.	.	.	.	.	.	.
!!LO:PB:g=original
=63	=63	=63	=63	=63	=63	=63	=63	=63	=63	=63	=63	=63	=63	=63	=63	=63	=63	=63	=63
4.C#X/	.	4.r	.	.	(4.C#X/	-klę-	.	(4.C#X/	-klę-	.	4r	.	.	4r	.	.	1ryy	.	.
.	.	.	.	.	.	.	.	.	.	.	8r	.	.	8r	.	.	.	.	.
16A\LL	.	8c#X/	.	.	16A\LL	.	.	16A\LL	.	.	8c#X\	zdraj-	.	8c#X\	zdraj-	.	.	.	.
16G\JJ	.	.	.	.	16G\JJ)	.	.	16G\JJ)	.	.	.	.	.	.	.	.	.	.	.
16Fn\LL	.	4.d/	.	.	(16Fn\LL	-ty	.	(16Fn\LL	-ty	.	8d\	-cy	.	8d\	-cy	.	.	.	.
16E\JJ	.	.	.	.	16E\JJ)	.	.	16E\JJ)	.	.	.	.	.	.	.	.	.	.	.
4D\	.	.	.	.	4D\	zbieg!	.	4D\	zbieg!	.	8d\	smierć!	.	8d\	smierć!	.	.	.	.
.	.	.	.	.	.	.	.	.	.	.	4r	.	.	4r	.	.	.	.	.
16DLL 16DD/	.	16ddLL 16d/	.	.	8r	.	.	8r	.	.	.	.	.	.	.	.	.	.	.
16DJJ 16DD/	.	16ddJJ 16d/	.	.	.	.	.	.	.	.	.	.	.	.	.	.	.	.	.
=64	=64	=64	=64	=64	=64	=64	=64	=64	=64	=64	=64	=64	=64	=64	=64	=64	=64	=64	=64
8D#X 8DD#X/	.	4dd#X 4d#X/	.	.	8r	.	.	8r	.	.	2r	.	.	2r	.	.	1ryy	.	.
16D#\LL	.	.	.	.	16D#X\	niech	.	16D#X\	niech	.	.	.	.	.	.	.	.	.	.
!	!	!	!	!	!	!	!LO:HP:a	!	!	!LO:HP:a	!	!	!	!	!	!	!	!	!
16E\JJ	.	.	.	.	16E\	zgi-	<	16E\	zgi-	<	.	.	.	.	.	.	.	.	.
16F#X\LL	.	4r	.	.	16F#X\	-nie	.	16F#X\	-nie	.	.	.	.	.	.	.	.	.	.
16G\	.	.	.	.	16G\	le-	.	16G\	le-	.	.	.	.	.	.	.	.	.	.
16A\	.	.	.	.	16A\	-chi-	[	16A\	-chi-	[	.	.	.	.	.	.	.	.	.
16B\JJ	.	.	.	.	16B\	-cki	.	16B\	-cki	.	.	.	.	.	.	.	.	.	.
4.c\	.	2r	.	.	4.c\	zbieg	.	4.c\	zbieg	.	4.cn\	śmierć!	.	4.cn\	śmierć!	.	.	.	.
16c\LL	.	.	.	.	16c\	nie-	.	16c\	nie-	.	8r	.	.	8r	.	.	.	.	.
16c\JJ	.	.	.	.	16c\	-chaj	.	16c\	-chaj	.	.	.	.	.	.	.	.	.	.
=65	=65	=65	=65	=65	=65	=65	=65	=65	=65	=65	=65	=65	=65	=65	=65	=65	=65	=65	=65
4.D#X\	.	4.r	.	.	4.D#X/	zgi-	.	4.D#X\	zgi-	.	4r	.	.	4r	.	.	1ryy	.	.
.	.	.	.	.	.	.	.	.	.	.	8r	.	.	8r	.	.	.	.	.
16B\LL	.	16B/LL	.	.	16B\	-nie	.	16B\	-nie	.	8d#X\	zdraj-	.	8d#X\	zdraj-	.	.	.	.
16A\JJ	.	16d#X/JJ	.	.	16A\	niech	.	16A\	niech	.	.	.	.	.	.	.	.	.	.
16G\LL	.	4.e/	.	.	(16G\LL	zgi-	.	(16G\LL	zgi-	.	8e\	-cy	.	8e\	-cy	.	.	.	.
16F#\JJ	.	.	.	.	16F#\JJ)	.	.	16F#\JJ)	.	.	.	.	.	.	.	.	.	.	.
4E^\	.	.	.	.	4E\	-nie!	.	4E\	-nie!	.	8e\	śmierć!	.	8e\	śmierć!	.	.	.	.
.	.	.	.	.	.	.	.	.	.	.	4r	.	.	4r	.	.	.	.	.
!	!	!	!	!LO:DY:b:rj	!	!	!	!	!	!	!	!	!	!	!	!	!	!	!
16ELL 16EE/	.	16eeLL 16e/	.	f	8r	.	.	8r	.	.	.	.	.	.	.	.	.	.	.
16EJJ 16EE/	.	16eeJJ 16e/	.	.	.	.	.	.	.	.	.	.	.	.	.	.	.	.	.
!!LO:LB:g=original
=66	=66	=66	=66	=66	=66	=66	=66	=66	=66	=66	=66	=66	=66	=66	=66	=66	=66	=66	=66
8EL 8EE/	.	8eeL 8e/	.	f	8r	.	.	8r	.	.	8r	.	.	8r	.	.	1ryy	.	.
16E/L	.	16g/L	.	.	16E\	niech	.	16E\	niech	.	16G/	niech	.	16G/	niech	.	.	.	.
16F#/JJ	.	16a/JJ	.	.	16F#\	zgi-	.	16F#\	zgi-	.	16A/	zgi-	.	16A/	zgi-	.	.	.	.
16G\LL	.	16b\LL	.	<	16G\	-nie	.	16G\	-nie	.	16B\	-nie	.	16B\	-nie	.	.	.	.
16A\	.	16cc\	.	.	16A\	sza-	.	16G\	sza-	.	16c\	sza-	.	16c\	sza-	.	.	.	.
16B\	.	16dd\	.	.	16B\	-tań-	.	16B\	-tań-	.	16d\	-tań-	.	16d\	-tań-	.	.	.	.
16c\JJ	.	16ee\JJ	.	[	16c\	-ski	.	16c\	-ski	.	16e\	-ski	.	16e\	-ski	.	.	.	.
4.d 4.D\	.	4.ffn 4.b 4.g#X 4.fn/	.	.	4.d^>\	syn,	.	4.d^>\	syn,	.	4.d^>\	syn,	.	4.fn^>\	syn,	.	.	.	.
16dLL 16D\	.	16ffLL 16b 16g# 16f/	.	.	16D\	nie-	.	16G#X\	nie-	.	16B\	nie-	.	16e\	nie-	.	.	.	.
16dJJ 16D\	.	16ffJJ 16b 16g# 16f/	.	.	16D\	-chaj	.	16G#\	-chaj	.	16B\	-chaj	.	16e\	-chaj	.	.	.	.
=67	=67	=67	=67	=67	=67	=67	=67	=67	=67	=67	=67	=67	=67	=67	=67	=67	=67	=67	=67
4c 4C\	.	4ffn 4cc 4a 4fn/	.	.	4C/	zgi-	.	4A\	zgi-	.	4c\	zgi-	.	4fn\	zgi-	.	1ryy	.	.
!	!	!	!	!	!	!	!LO:HP:a	!	!	!LO:HP:a	!	!	!LO:HP:a	!	!	!LO:HP:a	!	!	!
4c 4C\	.	8eeL 8a#X 8g 8e/	.	.	8.C/	-nie!	>	8.A#X\	-nie!	>	8.G/	-nie!	>	8.e\	-nie!	>	.	.	.
.	.	16eeL 16a# 16g 16e/	.	.	.	.	.	.	.	.	.	.	.	.	.	.	.	.	.
.	.	16eeJJ 16a# 16g 16e/	.	.	16C/	ze	.	16A#\	ze	.	16G/	ze	.	16e\	ze	.	.	.	.
4.B 4.BB\	.	4.ee 4.bn 4.g#X 4.e/	.	.	4BB/	zgra-	.	4B\	zgra-	.	4G#X/	zgra-	.	4e\	zgra-	.	.	.	.
.	.	.	.	.	8BB/	-ją	.	8B\	-ją	.	8G#/	-ją	.	8e\	-ją	.	.	.	.
16BLL 16BB\	.	16eeLL 16b 16g# 16e/	.	.	16C/	pod-	.	16G#X\	pod-	.	16B\	pod-	.	16e\	pod-	.	.	.	.
16BJJ 16BB\	.	16eeJJ 16b 16g# 16e/	.	.	16BB/	-łych	.	16G#\	-łych	.	16B\	-łych	.	16e\	-łych	.	.	.	.
=68	=68	=68	=68	=68	=68	=68	=68	=68	=68	=68	=68	=68	=68	=68	=68	=68	=68	=68	=68
!	!	!	!	!	!	!	!	!	!	!	!LO:SIC:v:s=4G-/	!	!	!	!	!	!	!	!
4B 4BB\	.	4dd#X 4b 4f# 4d#X/	.	.	4BB/	sług	.	4F#\	sług	.	4G/	sług	.	4d#X\	sług	.	1ryy	.	.
8G#XL 8GG#X\	.	8ddnL 8b 8f# 8dn/	.	.	8BB/	ze	.	8Fn\	ze	.	8G-X/	ze	.	8dn\	ze	.	.	.	.
8G#J 8GG#\	.	16ddL 16b 16f# 16d/	.	.	16GG#X/	zgra-	.	16F\	zgra-	.	16B\	zgra-	.	16d\	zgra-	.	.	.	.
.	.	16ddJJ 16b 16f# 16d/	.	.	16GG#/	-ją	.	16F\	-ją	.	16B\	-ją	.	16d\	-ją	.	.	.	.
4A 4AA\	.	4cc#X 4a 4e 4c#X/	.	.	4.AA/	sług	.	4.E\	sług	.	4.A/	sług	.	4.c#X\	sług	.	.	.	.
4AA 4AAA/	.	8ccnL 8a 8e 8cn/	.	.	.	.	.	.	.	.	.	.	.	.	.	.	.	.	.
.	.	16ccL 16a 16e 16c/	.	.	16AA/	nie-	.	16E\	nie-	.	16A/	nie-	.	16cn\	nie-	.	.	.	.
.	.	16ccJJ 16f# 16e 16c/	.	.	16AA/	-chaj	.	16E\	-chaj	.	16G-/	-chaj	.	16c\	-chaj	.	.	.	.
!!LO:LB:g=original
=69	=69	=69	=69	=69	=69	=69	=69	=69	=69	=69	=69	=69	=69	=69	=69	=69	=69	=69	=69
*	*	*^	*	*	*	*	*	*	*	*	*	*	*	*	*	*	*	*	*
*	*	*	*^	*	*	*	*	*	*	*	*	*	*	*	*	*	*	*	*	*
!	!	!	!LO:TX:a:t=P:problem:note position	!	!	!	!	!	!	!	!	!	!	!	!	!	!	!	!	!	!
2BB 2BBB/	.	2b/	4.g/	2e 2B\	.	.	2BB/	zgi-	.	2E\	zgi-	.	2F#/	zgi-	.	2B\	zgi-	.	1ryy	.	.
.	.	.	8f#/	.	.	.	.	.	.	.	.	.	.	.	.	.	.	.	.	.	.
4BB 4BBB;/	.	4b 4f# 4d#X 4B;/	2ryy	2ryy	.	.	4BB;/	-nie!	.	4D#X;\	-nie!	.	4F#;/	-nie!	.	4B;\	-nie!	.	.	.	.
4r	.	4r	.	.	.	.	4r	.	.	4r	.	.	4r	.	.	4r	.	.	.	.	.
*	*	*	*v	*v	*	*	*	*	*	*	*	*	*	*	*	*	*	*	*	*	*
*	*	*v	*v	*	*	*	*	*	*	*	*	*	*	*	*	*	*	*	*	*
=70||	=70||	=70||	=70||	=70||	=70||	=70||	=70||	=70||	=70||	=70||	=70||	=70||	=70||	=70||	=70||	=70||	=70||	=70||	=70||
*M6/8	*	*M6/8	*	*	*M6/8	*	*	*M6/8	*	*	*M6/8	*	*	*M6/8	*	*	*M6/8	*	*
!	!	!LO:TX:a:Bi:t=piu mosso.	!	!	!	!	!	!	!	!	!	!	!	!LO:TX:a:Bi:t=piu mosso	!	!	!	!	!
8.EL 8.EE\	.	16.eeLL 16.b 16.g 16.e/	.	f	4r	.	.	4r	.	.	4r	.	.	4r	.	.	2.ryy	.	.
.	.	32eeJJk 32b 32g 32e/	.	.	.	.	.	.	.	.	.	.	.	.	.	.	.	.	.
.	.	4ee 4b 4g 4e/	.	.	.	.	.	.	.	.	.	.	.	.	.	.	.	.	.
16BB\L	.	.	.	.	.	.	.	.	.	.	.	.	.	.	.	.	.	.	.
16C\	.	.	.	.	8r	.	.	8r	.	.	8r	.	.	8r	.	.	.	.	.
16D#X\JJ	.	.	.	.	.	.	.	.	.	.	.	.	.	.	.	.	.	.	.
16E\LL	.	8r	.	.	8r	.	.	8r	.	.	8r	.	.	8r	.	.	.	.	.
16D#\	.	.	.	.	.	.	.	.	.	.	.	.	.	.	.	.	.	.	.
.	.	(>32qqe/LLL	.	.	.	.	.	.	.	.	.	.	.	.	.	.	.	.	.
.	.	32qqg/	.	.	.	.	.	.	.	.	.	.	.	.	.	.	.	.	.
.	.	32qqb/JJJ	.	.	.	.	.	.	.	.	.	.	.	.	.	.	.	.	.
!	!	!	!	!	!	!	!LO:DY:a:rj	!	!	!LO:DY:a:rj	!	!	!LO:DY:a:rj	!	!	!LO:DY:a:rj	!	!	!
16E\	.	8ee'>\)	.	.	8E\	Niech	f	8G\	Niech	f	8B\	Niech	f	8e\	Niech	f	.	.	.
16F#\	.	.	.	.	.	.	.	.	.	.	.	.	.	.	.	.	.	.	.
.	.	(>32qqee/LLL	.	.	.	.	.	.	.	.	.	.	.	.	.	.	.	.	.
.	.	32qqgg/	.	.	.	.	.	.	.	.	.	.	.	.	.	.	.	.	.
.	.	32qqbb/JJJ	.	.	.	.	.	.	.	.	.	.	.	.	.	.	.	.	.
16G\	.	8eee'>\)	.	.	16E\	pod-	.	16G\	pod-	.	16B\	pod-	.	16e\	pod-	.	.	.	.
16F#\JJ	.	.	.	.	16E\	-ła	.	16G\	-ła	.	16B\	-ła	.	16e\	-ła	.	.	.	.
=71	=71	=71	=71	=71	=71	=71	=71	=71	=71	=71	=71	=71	=71	=71	=71	=71	=71	=71	=71
8.E\L	.	16.eeLL 16.b 16.g\	.	.	4.E\	krew	.	4.G\	krew	.	4.B\	krew	.	4.e\	krew	.	2.ryy	.	.
.	.	32eeJJk 32b 32g\	.	.	.	.	.	.	.	.	.	.	.	.	.	.	.	.	.
.	.	4ee 4b 4g\	.	.	.	.	.	.	.	.	.	.	.	.	.	.	.	.	.
16BB\L	.	.	.	<	.	.	.	.	.	.	.	.	.	.	.	.	.	.	.
16C#X\	.	.	.	.	.	.	.	.	.	.	.	.	.	.	.	.	.	.	.
16D#X\JJ	.	.	.	.	.	.	.	.	.	.	.	.	.	.	.	.	.	.	.
16E\LL	.	8r	.	.	4E\	na	.	4G\	na	.	4B\	na	.	4e\	na	.	.	.	.
16D#\	.	.	.	.	.	.	.	.	.	.	.	.	.	.	.	.	.	.	.
.	.	(>32qqe/LLL	.	.	.	.	.	.	.	.	.	.	.	.	.	.	.	.	.
.	.	32qqg/	.	.	.	.	.	.	.	.	.	.	.	.	.	.	.	.	.
.	.	32qqb/JJJ	.	.	.	.	.	.	.	.	.	.	.	.	.	.	.	.	.
16E\	.	8ee'>\)	.	.	.	.	.	.	.	.	.	.	.	.	.	.	.	.	.
16G\	.	.	.	.	.	.	.	.	.	.	.	.	.	.	.	.	.	.	.
.	.	(>32qqee/LLL	.	.	.	.	.	.	.	.	.	.	.	.	.	.	.	.	.
.	.	32qqgg/	.	.	.	.	.	.	.	.	.	.	.	.	.	.	.	.	.
.	.	32qqbb/JJJ	.	.	.	.	.	.	.	.	.	.	.	.	.	.	.	.	.
16F#\	.	8eee'>\)	.	[	16E\	nie-	.	16G\	nie-	.	16B\	nie-	.	16e\	nie-	.	.	.	.
16E\JJ	.	.	.	.	16E\	-go	.	16G\	-go	.	16B\	-go	.	16e\	-go	.	.	.	.
!!LO:PB:g=original
=72	=72	=72	=72	=72	=72	=72	=72	=72	=72	=72	=72	=72	=72	=72	=72	=72	=72	=72	=72
!	!	!	!	!LO:DY:b:rj	!	!	!	!	!	!	!	!	!	!	!	!	!	!	!
8.AL 8.AA\	.	16.eeLL 16.cc 16.a 16.e/	.	sf	4.AA/	spły-	.	4.A\	spły-	.	4.c\	spły-	.	4.e\	spły-	.	2.ryy	.	.
.	.	32eeJJk 32cc 32a 32e/	.	.	.	.	.	.	.	.	.	.	.	.	.	.	.	.	.
.	.	4ee 4cc 4a 4e/	.	.	.	.	.	.	.	.	.	.	.	.	.	.	.	.	.
16E\L	.	.	.	.	.	.	.	.	.	.	.	.	.	.	.	.	.	.	.
16F#\	.	.	.	.	.	.	.	.	.	.	.	.	.	.	.	.	.	.	.
16G#X\JJ	.	.	.	.	.	.	.	.	.	.	.	.	.	.	.	.	.	.	.
16A\LL	.	8r	.	.	4AA/	-nie	.	4A\	-nie	.	4c\	-nie	.	4e\	-nie	.	.	.	.
16G#\	.	.	.	.	.	.	.	.	.	.	.	.	.	.	.	.	.	.	.
.	.	(>32qqe/LLL	.	.	.	.	.	.	.	.	.	.	.	.	.	.	.	.	.
.	.	32qqa/	.	.	.	.	.	.	.	.	.	.	.	.	.	.	.	.	.
.	.	32qqcc/JJJ	.	.	.	.	.	.	.	.	.	.	.	.	.	.	.	.	.
16A\	.	8ee'>\)	.	.	.	.	.	.	.	.	.	.	.	.	.	.	.	.	.
16B\	.	.	.	.	.	.	.	.	.	.	.	.	.	.	.	.	.	.	.
.	.	(>32qqee/LLL	.	.	.	.	.	.	.	.	.	.	.	.	.	.	.	.	.
.	.	32qqaa/	.	.	.	.	.	.	.	.	.	.	.	.	.	.	.	.	.
.	.	32qqccc/JJJ	.	.	.	.	.	.	.	.	.	.	.	.	.	.	.	.	.
16c\	.	8eee'>\)	.	.	16AA/	pod-	.	16A\	pod-	.	16c\	pod-	.	16f#\	pod-	.	.	.	.
16A\JJ	.	.	.	.	16AA/	-ła	.	16A\	-ła	.	16c\	-ła	.	16e\	-ła	.	.	.	.
=73	=73	=73	=73	=73	=73	=73	=73	=73	=73	=73	=73	=73	=73	=73	=73	=73	=73	=73	=73
!	!	!	!	!LO:DY:b:rj	!	!	!	!	!	!	!	!	!	!	!	!	!	!	!
8.BL 8.BB\	.	16.dd#XLL 16.b 16.f#/	.	sf	4.BB/	krew	.	4.F#\	krew	.	4.B\	krew	.	4.d#X\	krew	.	2.ryy	.	.
.	.	32dd#JJk 32b 32f#/	.	.	.	.	.	.	.	.	.	.	.	.	.	.	.	.	.
.	.	4dd# 4b 4f#/	.	.	.	.	.	.	.	.	.	.	.	.	.	.	.	.	.
16A#X\L	.	.	.	.	.	.	.	.	.	.	.	.	.	.	.	.	.	.	.
16B\	.	.	.	.	.	.	.	.	.	.	.	.	.	.	.	.	.	.	.
16c\JJ	.	.	.	.	.	.	.	.	.	.	.	.	.	.	.	.	.	.	.
16B\LL	.	8r	.	.	4BB/	nie	.	4F#\	nie	.	4B\	nie	.	4d#\	nie	.	.	.	.
16A#\	.	.	.	.	.	.	.	.	.	.	.	.	.	.	.	.	.	.	.
.	.	(>32qqf#/LLL	.	.	.	.	.	.	.	.	.	.	.	.	.	.	.	.	.
.	.	32qqb/JJJ	.	.	.	.	.	.	.	.	.	.	.	.	.	.	.	.	.
16B\	.	8dd#X'>\)	.	.	.	.	.	.	.	.	.	.	.	.	.	.	.	.	.
16An\	.	.	.	.	.	.	.	.	.	.	.	.	.	.	.	.	.	.	.
.	.	(>32qqff#/LLL	.	.	.	.	.	.	.	.	.	.	.	.	.	.	.	.	.
.	.	32qqbb/JJJ	.	.	.	.	.	.	.	.	.	.	.	.	.	.	.	.	.
16G\	.	8ddd#X'>\)	.	.	16BB/	nie-	.	16F#\	nie-	.	16A/	nie-	.	16d#\	nie-	.	.	.	.
16F#\JJ	.	.	.	.	16BB/	-go	.	16F#\	-go	.	16A/	-go	.	16d#\	-go	.	.	.	.
=74	=74	=74	=74	=74	=74	=74	=74	=74	=74	=74	=74	=74	=74	=74	=74	=74	=74	=74	=74
!	!	!	!	!LO:DY:b:rj	!	!	!	!	!	!	!	!	!	!	!	!	!	!	!
8.E\L	.	16.eeLL 16.b 16.g 16.e/	.	sf	4.E\	spły-	.	4.G\	spły-	.	4.G/	spły-	.	4.e\	spły-	.	2.ryy	.	.
.	.	32eeJJk 32b 32g 32e/	.	.	.	.	.	.	.	.	.	.	.	.	.	.	.	.	.
.	.	4ee 4b 4g 4e/	.	.	.	.	.	.	.	.	.	.	.	.	.	.	.	.	.
16BB\L	.	.	.	.	.	.	.	.	.	.	.	.	.	.	.	.	.	.	.
16C#X\	.	.	.	.	.	.	.	.	.	.	.	.	.	.	.	.	.	.	.
16D#X\JJ	.	.	.	.	.	.	.	.	.	.	.	.	.	.	.	.	.	.	.
16E\LL	.	8r	.	.	4E\	-nie	.	4G\	-nie	.	4B\	-nie	.	4e\	-nie	.	.	.	.
16D#\	.	.	.	.	.	.	.	.	.	.	.	.	.	.	.	.	.	.	.
.	.	(>32qqe/LLL	.	.	.	.	.	.	.	.	.	.	.	.	.	.	.	.	.
.	.	32qqg/	.	.	.	.	.	.	.	.	.	.	.	.	.	.	.	.	.
.	.	32qqb/JJJ	.	.	.	.	.	.	.	.	.	.	.	.	.	.	.	.	.
16E\	.	8ee'>\)	.	.	.	.	.	.	.	.	.	.	.	.	.	.	.	.	.
16F#\	.	.	.	.	.	.	.	.	.	.	.	.	.	.	.	.	.	.	.
.	.	(>32qqee/LLL	.	.	.	.	.	.	.	.	.	.	.	.	.	.	.	.	.
.	.	32qqgg/	.	.	.	.	.	.	.	.	.	.	.	.	.	.	.	.	.
.	.	32qqbb/JJJ	.	.	.	.	.	.	.	.	.	.	.	.	.	.	.	.	.
16G\	.	8eee'>\)	.	.	16E\	je-	.	16G\	je-	.	16B\	je-	.	16e\	je-	.	.	.	.
16F#\JJ	.	.	.	.	16E\	-go	.	16G\	-go	.	16B\	-go	.	16e\	-go	.	.	.	.
!!LO:LB:g=original
=75	=75	=75	=75	=75	=75	=75	=75	=75	=75	=75	=75	=75	=75	=75	=75	=75	=75	=75	=75
8.E\L	.	16.eeLL 16.b 16.g\	.	.	4.E\	pierś	.	4.G\	pierś	.	4.B\	pierś	.	4.e\	pierś	.	2.ryy	.	.
.	.	32eeJJk 32b 32g\	.	.	.	.	.	.	.	.	.	.	.	.	.	.	.	.	.
.	.	4ee 4b 4g\	.	.	.	.	.	.	.	.	.	.	.	.	.	.	.	.	.
16BB\L	.	.	.	.	.	.	.	.	.	.	.	.	.	.	.	.	.	.	.
16C#X\	.	.	.	.	.	.	.	.	.	.	.	.	.	.	.	.	.	.	.
16D#X\JJ	.	.	.	<	.	.	.	.	.	.	.	.	.	.	.	.	.	.	.
16E\LL	.	8r	.	.	4r	.	.	4r	.	.	4r	.	.	4r	.	.	.	.	.
16F#\	.	.	.	.	.	.	.	.	.	.	.	.	.	.	.	.	.	.	.
.	.	(>32qqe/LLL	.	.	.	.	.	.	.	.	.	.	.	.	.	.	.	.	.
.	.	32qqg/	.	.	.	.	.	.	.	.	.	.	.	.	.	.	.	.	.
.	.	32qqb/JJJ	.	.	.	.	.	.	.	.	.	.	.	.	.	.	.	.	.
16G\	.	8ee'>\)	.	.	.	.	.	.	.	.	.	.	.	.	.	.	.	.	.
16A\	.	.	.	.	.	.	.	.	.	.	.	.	.	.	.	.	.	.	.
.	.	(>32qqee/LLL	.	.	.	.	.	.	.	.	.	.	.	.	.	.	.	.	.
.	.	32qqgg/	.	.	.	.	.	.	.	.	.	.	.	.	.	.	.	.	.
.	.	32qqbb/JJJ	.	.	.	.	.	.	.	.	.	.	.	.	.	.	.	.	.
16B\	.	8eee'>\)	.	[[	16C#X/	ze-	.	16G\	ze-	.	16A#X/	ze-	.	16e\	ze-	.	.	.	.
16c#X\JJ	.	.	.	.	16C#/	-drze	.	16G\	-drze	.	16A#/	-drze	.	16e\	-drze	.	.	.	.
=76	=76	=76	=76	=76	=76	=76	=76	=76	=76	=76	=76	=76	=76	=76	=76	=76	=76	=76	=76
!	!	!	!	!	!	!	!	!	!	!	!	!	!	!LO:SIC:v:s=4.dn\	!	!	!	!	!
8.dnL 8.Dn\	.	16.ddLL 16.b 16.g/	.	.	4.D\	kruk	.	4.G\	kruk	.	4.B\	kruk	.	4.d#X\	kruk	.	2.ryy	.	.
.	.	32ddJJk 32b 32g/	.	.	.	.	.	.	.	.	.	.	.	.	.	.	.	.	.
.	.	4dd 4b 4g/	.	.	.	.	.	.	.	.	.	.	.	.	.	.	.	.	.
16Dn\L	.	.	.	.	.	.	.	.	.	.	.	.	.	.	.	.	.	.	.
16E\	.	.	.	.	.	.	.	.	.	.	.	.	.	.	.	.	.	.	.
16F#\JJ	.	.	.	.	.	.	.	.	.	.	.	.	.	.	.	.	.	.	.
!	!	!	!	!	!	!	!	!	!	!	!	!	!	!LO:SIC:v:s=4dn\	!	!	!	!	!
16G\LL	.	8r	.	<	4D\	niech	.	4G\	niech	.	4B\	niech	.	4d#\	niech	.	.	.	.
16F#\	.	.	.	.	.	.	.	.	.	.	.	.	.	.	.	.	.	.	.
.	.	(>32qqg/LLL	.	.	.	.	.	.	.	.	.	.	.	.	.	.	.	.	.
.	.	32qqb/JJJ	.	.	.	.	.	.	.	.	.	.	.	.	.	.	.	.	.
16G\	.	8dd'>\)	.	.	.	.	.	.	.	.	.	.	.	.	.	.	.	.	.
16A\	.	.	.	.	.	.	.	.	.	.	.	.	.	.	.	.	.	.	.
.	.	(>32qqgg/LLL	.	.	.	.	.	.	.	.	.	.	.	.	.	.	.	.	.
.	.	32qqbb/JJJ	.	.	.	.	.	.	.	.	.	.	.	.	.	.	.	.	.
16B\	.	8ddd'>\)	.	[[	16G\	je-	.	16B\	je-	.	16B\	je-	.	16g\	je-	.	.	.	.
16c\JJ	.	.	.	.	16G\	-go	.	16c\	-go	.	16c\	-go	.	16g\	-go	.	.	.	.
=77	=77	=77	=77	=77	=77	=77	=77	=77	=77	=77	=77	=77	=77	=77	=77	=77	=77	=77	=77
8.dL 8.D\	.	16.ddLL 16.b 16.f#/	.	.	4.D\	pierś	.	4.d\	pierś	.	4.d\	pierś	.	4.f#\	pierś	.	2.ryy	.	.
.	.	32ddJJk 32b 32f#/	.	.	.	.	.	.	.	.	.	.	.	.	.	.	.	.	.
.	.	4dd 4b 4f#/	.	.	.	.	.	.	.	.	.	.	.	.	.	.	.	.	.
16D\L	.	.	.	.	.	.	.	.	.	.	.	.	.	.	.	.	.	.	.
16F#\	.	.	.	.	.	.	.	.	.	.	.	.	.	.	.	.	.	.	.
16E\JJ	.	.	.	.	.	.	.	.	.	.	.	.	.	.	.	.	.	.	.
16D\LL	.	8r	.	<	8D\	niech	.	8A\	niech	.	8d\	niech	.	8f#\	niech	.	.	.	.
16E\	.	.	.	.	.	.	.	.	.	.	.	.	.	.	.	.	.	.	.
.	.	(>32qqf#/LLL	.	.	.	.	.	.	.	.	.	.	.	.	.	.	.	.	.
.	.	32qqa/JJJ	.	.	.	.	.	.	.	.	.	.	.	.	.	.	.	.	.
16F#\	.	8dd'>\)	.	.	8r	.	.	8r	.	.	8r	.	.	8r	.	.	.	.	.
16G\	.	.	.	.	.	.	.	.	.	.	.	.	.	.	.	.	.	.	.
.	.	(>32qqff#/LLL	.	.	.	.	.	.	.	.	.	.	.	.	.	.	.	.	.
.	.	32qqaa/JJJ	.	.	.	.	.	.	.	.	.	.	.	.	.	.	.	.	.
16A\	.	8ddd'>\)	.	[[	16D\	je-	.	16B\	je-	.	16d\	je-	.	16f#\	je-	.	.	.	.
16A#X\JJ	.	.	.	.	16D\	-go	.	16A#X\	-go	.	16d\	-go	.	16f#\	-go	.	.	.	.
!!LO:LB:g=original
=78	=78	=78	=78	=78	=78	=78	=78	=78	=78	=78	=78	=78	=78	=78	=78	=78	=78	=78	=78
!	!	!	!	!LO:DY:b:rj	!	!	!	!	!	!	!	!	!	!	!	!	!	!	!
8.BL 8.BB\	.	16.dd#XLL 16.b 16.f#/	.	sf	4.BB/	pierś	.	4.B\	pierś	.	4.d#X\	pierś	.	4.f#\	pierś	.	2.ryy	.	.
.	.	32dd#JJk 32b 32f#/	.	.	.	.	.	.	.	.	.	.	.	.	.	.	.	.	.
.	.	4dd# 4b 4f#/	.	.	.	.	.	.	.	.	.	.	.	.	.	.	.	.	.
16d#X\L	.	.	.	.	.	.	.	.	.	.	.	.	.	.	.	.	.	.	.
16f#\	.	.	.	.	.	.	.	.	.	.	.	.	.	.	.	.	.	.	.
16e\JJ	.	.	.	.	.	.	.	.	.	.	.	.	.	.	.	.	.	.	.
16d#X\LL	.	8r	.	.	4r	.	.	4r	.	.	4r	.	.	4r	.	.	.	.	.
16c\	.	.	.	.	.	.	.	.	.	.	.	.	.	.	.	.	.	.	.
.	.	(>32qqf#/LLL	.	.	.	.	.	.	.	.	.	.	.	.	.	.	.	.	.
.	.	32qqb/JJJ	.	.	.	.	.	.	.	.	.	.	.	.	.	.	.	.	.
16B\	.	8dd#X'>\)	.	.	.	.	.	.	.	.	.	.	.	.	.	.	.	.	.
16A\	.	.	.	.	.	.	.	.	.	.	.	.	.	.	.	.	.	.	.
.	.	(>32qqff#/LLL	.	.	.	.	.	.	.	.	.	.	.	.	.	.	.	.	.
.	.	32qqbb/JJJ	.	.	.	.	.	.	.	.	.	.	.	.	.	.	.	.	.
16G\	.	8ddd#X'>\)	.	.	16BB/	ze-	.	16B\	ze-	.	16B\	ze-	.	16d#X\	ze-	.	.	.	.
16F#\JJ	.	.	.	.	16BB/	-drze	.	16An\	-drze	.	16B\	-drze	.	16d#\	-drze	.	.	.	.
=79	=79	=79	=79	=79	=79	=79	=79	=79	=79	=79	=79	=79	=79	=79	=79	=79	=79	=79	=79
!	!	!	!	!LO:DY:b:rj	!	!	!	!	!	!	!	!	!	!	!	!	!	!	!
8.E\L	.	16.eeLL 16.b 16.g/	.	sf	4.E\	kruk	.	4.G\	kruk	.	4.B\	kruk	.	4.e\	kruk	.	2.ryy	.	.
.	.	32eeJJk 32b 32g/	.	.	.	.	.	.	.	.	.	.	.	.	.	.	.	.	.
.	.	4ee 4b 4g/	.	.	.	.	.	.	.	.	.	.	.	.	.	.	.	.	.
16E\L	.	.	.	.	.	.	.	.	.	.	.	.	.	.	.	.	.	.	.
16F#\	.	.	.	.	.	.	.	.	.	.	.	.	.	.	.	.	.	.	.
16G\JJ	.	.	.	.	.	.	.	.	.	.	.	.	.	.	.	.	.	.	.
!	!	!	!	!LO:DY:b:rj	!	!	!	!	!	!	!	!	!	!	!	!	!	!	!
8.C\L	.	16.eeLL 16.b 16.g/	.	sf	4C/	niech	.	4G\	niech	.	4c\	niech	.	4e\	niech	.	.	.	.
.	.	32eeJJk 32b 32g/	.	.	.	.	.	.	.	.	.	.	.	.	.	.	.	.	.
.	.	4ee 4b 4g/	.	.	.	.	.	.	.	.	.	.	.	.	.	.	.	.	.
16C\L	.	.	.	.	.	.	.	.	.	.	.	.	.	.	.	.	.	.	.
16D\	.	.	.	.	16C/	je-	.	16G\	je-	.	16c\	je-	.	16e\	je-	.	.	.	.
16E\JJ	.	.	.	.	16C/	-go	.	16G\	-go	.	16c\	-go	.	16e\	-go	.	.	.	.
=80	=80	=80	=80	=80	=80	=80	=80	=80	=80	=80	=80	=80	=80	=80	=80	=80	=80	=80	=80
8.AA/L	.	16.eeLL 16.cc 16.f#/	.	.	4AA/	krew	.	4A\	krew	.	4c\	krew	.	4e\	krew	.	2.ryy	.	.
.	.	32eeJJk 32cc 32f#/	.	.	.	.	.	.	.	.	.	.	.	.	.	.	.	.	.
.	.	4ee 4cc 4f#/	.	.	.	.	.	.	.	.	.	.	.	.	.	.	.	.	.
16C/L	.	.	.	.	.	.	.	.	.	.	.	.	.	.	.	.	.	.	.
16BB/	.	.	.	.	16AA/	pod-	.	16A\	pod-	.	16c\	pod-	.	16e\	pod-	.	.	.	.
16AA/JJ	.	.	.	.	16AA/	-ła	.	16A\	-ła	.	16c\	-ła	.	16e\	-ła	.	.	.	.
8.BB\L	.	16.dd#XLL 16.b 16.f#/	.	.	4BB/	na	.	4B\	na	.	4B\	na	.	4d#X\	na	.	.	.	.
.	.	32dd#JJk 32b 32f#/	.	.	.	.	.	.	.	.	.	.	.	.	.	.	.	.	.
.	.	4dd# 4b 4f#/	.	.	.	.	.	.	.	.	.	.	.	.	.	.	.	.	.
16B\L	.	.	.	.	.	.	.	.	.	.	.	.	.	.	.	.	.	.	.
16A#X\	.	.	.	.	16BB/	nie-	.	16B\	nie-	.	16B\	nie-	.	16d#\	nie-	.	.	.	.
16B\JJ	.	.	.	.	16BB/	-go	.	16A\	-go	.	16B\	-go	.	16d#\	-go	.	.	.	.
!!LO:PB:g=original
=81	=81	=81	=81	=81	=81	=81	=81	=81	=81	=81	=81	=81	=81	=81	=81	=81	=81	=81	=81
!	!	!	!	!LO:DY:b:rj	!	!	!	!	!	!	!	!	!	!	!	!	!	!	!
8.E\L	.	16.eeLL 16.b 16.g\	.	sf	4.E\	spły-	.	4.G\	spły-	.	4.B\	spły-	.	4.e\	spły-	.	2.ryy	.	.
.	.	32eeJJk 32b 32g\	.	.	.	.	.	.	.	.	.	.	.	.	.	.	.	.	.
.	.	4ee 4b 4g\	.	.	.	.	.	.	.	.	.	.	.	.	.	.	.	.	.
16E\L	.	.	.	.	.	.	.	.	.	.	.	.	.	.	.	.	.	.	.
16F#\	.	.	.	.	.	.	.	.	.	.	.	.	.	.	.	.	.	.	.
16G\JJ	.	.	.	.	.	.	.	.	.	.	.	.	.	.	.	.	.	.	.
8.C^\L	.	16.eeLL 16.cc 16.g\	.	.	4C/	-nie	.	4G\	-nie	.	4c\	-nie	.	4e\	-nie	.	.	.	.
.	.	32eeJJk 32cc 32g\	.	.	.	.	.	.	.	.	.	.	.	.	.	.	.	.	.
.	.	4ee 4cc 4g\	.	.	.	.	.	.	.	.	.	.	.	.	.	.	.	.	.
16C\L	.	.	.	.	.	.	.	.	.	.	.	.	.	.	.	.	.	.	.
16D\	.	.	.	.	16C/	je-	.	16G\	je-	.	16c\	je-	.	16e\	je-	.	.	.	.
16E\JJ	.	.	.	.	16C/	-go	.	16G\	-go	.	16c\	-go	.	16e\	-go	.	.	.	.
=82	=82	=82	=82	=82	=82	=82	=82	=82	=82	=82	=82	=82	=82	=82	=82	=82	=82	=82	=82
8.AA/L	.	16.eeLL 16.cc 16.f#\	.	.	4AA/	pierś	.	4A\	pierś	.	4c\	pierś	.	4e\	pierś	.	2.ryy	.	.
.	.	32eeJJk 32cc 32f#\	.	.	.	.	.	.	.	.	.	.	.	.	.	.	.	.	.
.	.	4ee 4cc 4f#\	.	.	.	.	.	.	.	.	.	.	.	.	.	.	.	.	.
16AA/L	.	.	.	.	.	.	.	.	.	.	.	.	.	.	.	.	.	.	.
16BB/	.	.	.	.	8AA/	ro-	.	8A\	ro-	.	8c\	ro-	.	(16f#\LL	ro-	.	.	.	.
16C/JJ	.	.	.	.	.	.	.	.	.	.	.	.	.	16e\JJ)	.	.	.	.	.
!	!	!	!	!	!	!	!	!	!	!	!LO:SIC:v:s=(4d#\	!	!	!	!	!	!	!	!
8.BB\L	.	16.dd#XLL 16.b 16.f#\	.	.	[4BB/	-ze-	.	(4F#\	-ze-	.	(4d\	-ze-	.	[4d#X\	-ze-	.	.	.	.
.	.	32dd#JJk 32b 32f#\	.	.	.	.	.	.	.	.	.	.	.	.	.	.	.	.	.
.	.	4dd# 4b 4f#\	.	.	.	.	.	.	.	.	.	.	.	.	.	.	.	.	.
16B\L	.	.	.	.	.	.	.	.	.	.	.	.	.	.	.	.	.	.	.
16A#X\	.	.	.	.	16BB/]	.	.	16B\)	.	.	16B\)	.	.	16d#\]	.	.	.	.	.
16B\JJ	.	.	.	.	16BB/	-drze	.	16A\	-drze	.	16B\	-drze	.	16d#\	-drze	.	.	.	.
=83	=83	=83	=83	=83	=83	=83	=83	=83	=83	=83	=83	=83	=83	=83	=83	=83	=83	=83	=83
!	!	!	!	!	!LO:TX:a:t=P:problem:brak nuty w źródle	!	!	!LO:TX:a:t=P:problem:brak nuty w źródle	!	!	!	!	!	!	!	!	!	!	!
16E\LL	.	16eeLL 16b 16g/	.	.	4BB/	kruk	.	4B\	kruk	.	4B\	kruk	.	4e\	kruk	.	2.ryy	.	.
16E\	.	16e/	.	.	.	.	.	.	.	.	.	.	.	.	.	.	.	.	.
16F#\	.	16f#/	.	.	.	.	.	.	.	.	.	.	.	.	.	.	.	.	.
16G\	.	16g/	.	<	.	.	.	.	.	.	.	.	.	.	.	.	.	.	.
16F#\	.	16f#/	.	.	4r	.	.	4r	.	.	4r	.	.	4r	.	.	.	.	.
16G\JJ	.	16g/JJ	.	.	.	.	.	.	.	.	.	.	.	.	.	.	.	.	.
16A\LL	.	16a\LL	.	.	.	.	.	.	.	.	.	.	.	.	.	.	.	.	.
16B\	.	16b\	.	.	.	.	.	.	.	.	.	.	.	.	.	.	.	.	.
16c\	.	16cc\	.	.	8r	.	.	8r	.	.	8r	.	.	8r	.	.	.	.	.
16d\	.	16dd\	.	[	.	.	.	.	.	.	.	.	.	.	.	.	.	.	.
16d#X\	.	16dd#X\	.	.	16r	.	.	16r	.	.	16r	.	.	16r	.	.	.	.	.
16e\JJ	.	16ee\JJ	.	.	16E\	niech	.	16E\	niech	.	16e\	niech	.	16e\	niech	.	.	.	.
!!LO:LB:g=original
=84	=84	=84	=84	=84	=84	=84	=84	=84	=84	=84	=84	=84	=84	=84	=84	=84	=84	=84	=84
!	!	!	!	!LO:DY:b:rj	!	!	!	!	!	!	!	!	!	!	!	!	!	!	!
4d 4D\	.	4ffn 4b 4g#X\	.	sf	(4D\	pod-	.	(4G#X\	pod-	.	(4B\	pod-	.	(4fn\	pod-	.	2.ryy	.	.
16c#XLL 16C#X\	.	16eeLL 16a#X 16g#\	.	.	16C#X/)	.	.	16Gn\)	.	.	16A#X/)	.	.	16e\)	.	.	.	.	.
16c#JJ 16C#\	.	16eeJJ 16a# 16g#\	.	.	16C#/	-ła	.	16G\	-ła	.	16A#/	-ła	.	16e\	-ła	.	.	.	.
4e 4E\	.	4ff 4cc#X 4a#\	.	.	4E\	krew	.	4B-X\	krew	.	4c#X\	krew	.	4g\	krew	.	.	.	.
16d#XLL 16D#X\	.	16ffLL 16ccn 16an\	.	.	16D#X\	pod-	.	16A\	pod-	.	16cn\	pod-	.	16f#X\	pod-	.	.	.	.
16d#JJ 16D#\	.	16ffJJ 16cc 16a\	.	.	16D#\	-ła	.	16A\	-ła	.	16c\	-ła	.	16f#\	-ła	.	.	.	.
=85	=85	=85	=85	=85	=85	=85	=85	=85	=85	=85	=85	=85	=85	=85	=85	=85	=85	=85	=85
!	!	!	!	!LO:DY:b:rj	!	!	!	!	!	!	!	!	!	!	!	!	!	!	!
4f# 4F#\	.	4aa 4cc 4a\	.	sf	(4F#^\	krew	.	[4A^\	krew	.	[4c^\	krew	.	(4a^\	krew	.	2.ryy	.	.
16ALL 16AA\	.	(16ggLL 16cc 16a\	.	.	16AA/)	.	.	16A\]	.	.	16c\]	.	.	16g\)	.	.	.	.	.
16AJJ 16AA\	.	16ff#JJ 16cc 16a\)	.	.	16AA/	na	.	16A\	na	.	16c\	na	.	16f#\	na	.	.	.	.
4B 4BB\	.	8eeL 8b 8g^\	.	.	4BB/	nie-	.	4G\	nie-	.	4B\	nie-	.	(8e\L	nie-	.	.	.	.
.	.	8ff# 8b 8a^\	.	.	.	.	.	.	.	.	.	.	.	8f#\J)	.	.	.	.	.
8B 8BB\	.	8dd#XJ 8b 8a^\	.	.	8BB/	-go	.	8F#\	-go	.	8A/	-go	.	8d#X\	-go	.	.	.	.
=86	=86	=86	=86	=86	=86	=86	=86	=86	=86	=86	=86	=86	=86	=86	=86	=86	=86	=86	=86
!	!	!	!	!LO:DY:b:rj	!	!	!	!	!	!	!	!	!	!	!	!	!	!	!
4B 4E\	.	16eeLL 16g\	.	f	(4E\	spły-	.	(4E\	spły-	.	(4G/	spły-	.	(4e\	spły-	.	2.ryy	.	.
.	.	(16ee\	.	.	.	.	.	.	.	.	.	.	.	.	.	.	.	.	.
.	.	16ff#\	.	.	.	.	.	.	.	.	.	.	.	.	.	.	.	.	.
.	.	16gg\)	.	.	.	.	.	.	.	.	.	.	.	.	.	.	.	.	.
16BLL 16F# 16D#X 16BB\	.	(16ff#\	.	.	16B\)	.	.	16B\)	.	.	16d#X\)	.	.	16f#\)	.	.	.	.	.
16BJJ 16F# 16D# 16BB\	.	16bb\JJ)	.	.	16B\	-nie	.	16B\	-nie	.	16d#\	-nie	.	16f#\	-nie	.	.	.	.
4B 4G 4E\	.	16gg\LL	.	.	4E\	niech	.	4B\	niech	.	4e\	niech	.	4g\	niech	.	.	.	.
.	.	(16ee\	.	.	.	.	.	.	.	.	.	.	.	.	.	.	.	.	.
.	.	16ff#\	.	.	.	.	.	.	.	.	.	.	.	.	.	.	.	.	.
.	.	16gg\)	.	.	.	.	.	.	.	.	.	.	.	.	.	.	.	.	.
16BLL 16F# 16D# 16BB\	.	(16ff#\	.	.	16B\	je-	.	16B\	je-	.	16d#\	je-	.	16f#\	je-	.	.	.	.
16BJJ 16F# 16D# 16BB\	.	16bb\JJ)	.	.	16B\	-go	.	16B\	-go	.	16d#\	-go	.	16f#\	-go	.	.	.	.
!!LO:LB:g=original
=87	=87	=87	=87	=87	=87	=87	=87	=87	=87	=87	=87	=87	=87	=87	=87	=87	=87	=87	=87
4B 4G 4E\	.	(16gg\LL	.	.	(4E\	pierś	.	[4B\	pierś	.	(4e\	pierś	.	(4g\	pierś	.	2.ryy	.	.
.	.	16ee\	.	.	.	.	.	.	.	.	.	.	.	.	.	.	.	.	.
.	.	16ff#\	.	.	.	.	.	.	.	.	.	.	.	.	.	.	.	.	.
.	.	16gg\)	.	.	.	.	.	.	.	.	.	.	.	.	.	.	.	.	.
16BLL 16F# 16D#X 16BB\	.	(16ff#\	.	.	16B\)	.	.	16B\]	.	.	16d#X\)	.	.	16f#\)	.	.	.	.	.
16BJJ 16F# 16D# 16BB\	.	16bb\JJ)	.	.	16B\	ro-	.	16B\	ro-	.	16d#\	ro-	.	16f#\	ro-	.	.	.	.
4B 4G 4E\	.	(16gg\LL	.	.	4E\	-ze-	.	4B\	-ze-	.	(8e\	-ze-	.	(8e\	-ze-	.	.	.	.
.	.	16ee\	.	.	.	.	.	.	.	.	.	.	.	.	.	.	.	.	.
.	.	16ff#\	.	.	.	.	.	.	.	.	8d#\)	.	.	8f#\)	.	.	.	.	.
.	.	16gg\)	.	.	.	.	.	.	.	.	.	.	.	.	.	.	.	.	.
16BLL 16F# 16D# 16BB\	.	(16ff#\	.	.	8BB/	-drze	.	8A\	-drze	.	8d#\	-drze	.	8b\	-drze	.	.	.	.
16BJJ 16F# 16D# 16BB\	.	16bb\JJ)	.	.	.	.	.	.	.	.	.	.	.	.	.	.	.	.	.
=88	=88	=88	=88	=88	=88	=88	=88	=88	=88	=88	=88	=88	=88	=88	=88	=88	=88	=88	=88
!	!	!	!	!LO:DY:b:rj	!	!	!	!	!	!	!	!	!	!	!	!	!	!	!
4E 4EE/	.	4ee 4b 4g#X 4e/	.	f	4E\	kruk	.	4G#X\	kruk	.	4e\	kruk	.	4e\	kruk	.	2.ryy	.	.
16ELL 16EE/	.	16eeLL 16b 16g# 16e/	.	.	4r	.	.	4r	.	.	4r	.	.	4r	.	.	.	.	.
16EJJ 16EE/	.	16eeJJ 16b 16g# 16e/	.	.	.	.	.	.	.	.	.	.	.	.	.	.	.	.	.
8EL 8EE/	.	8eeL 8b 8g# 8e/	.	.	.	.	.	.	.	.	.	.	.	.	.	.	.	.	.
8E 8EE/	.	8ee 8b 8g# 8e/	.	.	8r	.	.	8r	.	.	8r	.	.	8r	.	.	.	.	.
8EJ 8EE/	.	8eeJ 8b 8g# 8e/	.	.	16r	.	.	16r	.	.	16r	.	.	16r	.	.	.	.	.
.	.	.	.	.	16E\	niech	.	16G#\	niech	.	16B\	niech	.	16e\	niech	.	.	.	.
=89	=89	=89	=89	=89	=89	=89	=89	=89	=89	=89	=89	=89	=89	=89	=89	=89	=89	=89	=89
*tremolo	*	*	*	*	*	*	*	*	*	*	*	*	*	*	*	*	*	*	*
!	!	!	!	!LO:DY:b:rj	!	!	!LO:DY:a:rj	!	!	!LO:DY:a:rj	!	!	!LO:DY:a:rj	!	!	!LO:DY:a:rj	!	!	!
32EE/LLL	.	2.ee 2.b 2.g#X 2.e/	.	ff	2.E\	zgi-	ff	2.G#X\	zgi-	ff	2.B\	zgi-	ff	2.e\	zgi-	ff	2.ryy	.	.
32E/	.	.	.	.	.	.	.	.	.	.	.	.	.	.	.	.	.	.	.
32EE/	.	.	.	.	.	.	.	.	.	.	.	.	.	.	.	.	.	.	.
32E/	.	.	.	.	.	.	.	.	.	.	.	.	.	.	.	.	.	.	.
32EE/	.	.	.	.	.	.	.	.	.	.	.	.	.	.	.	.	.	.	.
32E/	.	.	.	.	.	.	.	.	.	.	.	.	.	.	.	.	.	.	.
32EE/	.	.	.	.	.	.	.	.	.	.	.	.	.	.	.	.	.	.	.
32E/	.	.	.	.	.	.	.	.	.	.	.	.	.	.	.	.	.	.	.
32EE/	.	.	.	.	.	.	.	.	.	.	.	.	.	.	.	.	.	.	.
32E/	.	.	.	.	.	.	.	.	.	.	.	.	.	.	.	.	.	.	.
32EE/	.	.	.	.	.	.	.	.	.	.	.	.	.	.	.	.	.	.	.
32E/	.	.	.	.	.	.	.	.	.	.	.	.	.	.	.	.	.	.	.
32EE/	.	.	.	.	.	.	.	.	.	.	.	.	.	.	.	.	.	.	.
32E/	.	.	.	.	.	.	.	.	.	.	.	.	.	.	.	.	.	.	.
32EE/	.	.	.	.	.	.	.	.	.	.	.	.	.	.	.	.	.	.	.
32E/	.	.	.	.	.	.	.	.	.	.	.	.	.	.	.	.	.	.	.
32EE/	.	.	.	.	.	.	.	.	.	.	.	.	.	.	.	.	.	.	.
32E/	.	.	.	.	.	.	.	.	.	.	.	.	.	.	.	.	.	.	.
32EE/	.	.	.	.	.	.	.	.	.	.	.	.	.	.	.	.	.	.	.
32E/	.	.	.	.	.	.	.	.	.	.	.	.	.	.	.	.	.	.	.
32EE/	.	.	.	.	.	.	.	.	.	.	.	.	.	.	.	.	.	.	.
32E/	.	.	.	.	.	.	.	.	.	.	.	.	.	.	.	.	.	.	.
32EE/	.	.	.	.	.	.	.	.	.	.	.	.	.	.	.	.	.	.	.
32E/JJJ	.	.	.	.	.	.	.	.	.	.	.	.	.	.	.	.	.	.	.
*Xtremolo	*	*	*	*	*	*	*	*	*	*	*	*	*	*	*	*	*	*	*
=90	=90	=90	=90	=90	=90	=90	=90	=90	=90	=90	=90	=90	=90	=90	=90	=90	=90	=90	=90
2.E 2.EE;</	.	2.ee 2.b 2.g#X 2.e;</	.	.	2E\	-nie!	.	2G#X\	-nie!	.	2B\	-nie!	.	2e\	-nie!	.	2.ryy	.	.
.	.	.	.	.	4r	.	.	4r	.	.	4r	.	.	4r	.	.	.	.	.
==	==	==	==	==	==	==	==	==	==	==	==	==	==	==	==	==	==	==	==
*-	*-	*-	*-	*-	*-	*-	*-	*-	*-	*-	*-	*-	*-	*-	*-	*-	*-	*-	*-
!!title: @{OTL};
!!!RDF**kern: > = above
!!!RDF**kern: < = below
!!!RDF**dynam: > = "decres", fontstyle= "bold-italic"
!!!RDF**dynam: < = "cres.", fontstyle= "bold-italic"
!!!RDF**kern: | = vertical stroke
!!!RDF**kern: N = linked
!!!RDF**kern: i = editorial accidental
!!!RDF**kern: l = terminal long
!!!AIN: 6 empty
!!!ENC: Anastazja Marusiak
!!!END: 2022-02-27
!!!EED: Wojciech Jakubiak-Danek
!!!EST: 2022-03-25
!!!URL-scan: https://polona.pl/item/swiety-wojciech-meczennik-oratorjo-w-trzech-czesciach-dzielo-66-spiew-z-fortepianem,MTkzODI1Mzc/242/#item
!!!ONB-nifc: UWAGA: oratorium zawiera w źródle 28 numerów podzielonych na 30 plików (rozdzielenie w No. 6 - osobno Recitativo oraz Aria matki i No. 10 - osobno Recitativo, arja i chór oraz Sen). Polecam widok miniatur na Polonie. Uwaga co do obsady: prosimy umieszczać tylko partie występujące w danym numerze (nie całą obsadę oratorium)
